&ACCESS RVP 
&PARAM TEMPLATE = C:\KRC\Roboter\Template\vorgabe 
&PARAM EDITMASK = * 
DEF Archivos_KRL/Contorno_KRL/cilindro( ) 
;FOLD INI;%{PE}%V3.2.0,%MKUKATPBASIS,%CINIT,%VCOMMON,%P
;FOLD BAS INI;%{E}%V3.2.0,%MKUKATPBASIS,%CINIT,%VINIT,%P
GLOBAL INTERRUPT DECL 3 WHEN $STOPMESS==TRUE DO IR_STOPM ( )
INTERRUPT ON 3 
BAS (#INITMOV,0 )
;ENDFOLD (BAS INI)
;FOLD A20 INI;%{E}%V3.2.0,%MKUKATPA20,%CINIT,%VINIT,%P
IF ARC20==TRUE THEN
A20 (ARC_INI)
INTERRUPT DECL 6 WHEN $CYCFLAG[3]==FALSE DO A20(TECH_STOP2)
ENDIF
;ENDFOLD (A20 INI)
;FOLD A10 INI;%{E}%V3.2.0,%MKUKATPARC,%CINIT,%VINIT,%P
IF A10_OPTION==#ACTIVE THEN
INTERRUPT DECL 4 WHEN $CYCFLAG[2]==FALSE DO A10 (#APPL_ERROR)
INTERRUPT DECL 7 WHEN A_ARC_SWI==#ACTIVE DO A10 (#ARC_SEAM)
INTERRUPT DECL 5 WHEN A_FLY_ARC==TRUE DO A10 (#HPU_ARC)
INTERRUPT  ON 5
A10_INI ( )
ENDIF
;ENDFOLD (A10 INI)
;FOLD GRIPPER INI;%{E}%V3.2.0,%MKUKATPGRIPPER,%CINIT,%VINIT,%P
USER_GRP(0,DUMMY,DUMMY,GDEFAULT)
;ENDFOLD (GRIPPER INI)
;FOLD SPOT INI;%{E}%V3.2.0,%MKUKATPSPOT,%CINIT,%VINIT,%P
USERSPOT(#INIT)
;ENDFOLD (SPOT INI)
;FOLD TOUCHSENSE INI;%{E}%V3.2.0,%MKUKATPTS,%CINIT,%VINIT,%P
IF H70_OPTION THEN
INTERRUPT DECL 15 WHEN $MEAS_PULSE[TOUCH_I[TOUCH_ACTIVE].IN_NR] DO H70 (6,CD0 )
INTERRUPT DECL 16 WHEN $ZERO_MOVE DO H70 (7,CD0 )
INTERRUPT DECL 17 WHEN $TECHPAR_C[FG_TOUCH,8]>0.5 DO H70 (8,CD0)
H70 (1,CD0 )
ENDIF
;ENDFOLD (TOUCHSENSE INI)
;FOLD USER INI;%{E}%V3.2.0,%MKUKATPUSER,%CINIT,%VINIT,%P
;Make your modifications here
;ENDFOLD (USER INI)
;ENDFOLD (INI)
; SPEED PTP FOR AXIS
$VEL_AXIS[1] = 15
$VEL_AXIS[2] = 15
$VEL_AXIS[3] = 15
$VEL_AXIS[4] = 15
$VEL_AXIS[5] = 15
$VEL_AXIS[6] = 15
;SMOOTHNESS
$APO.CDIS = 2
;ADVANCE
$ADVANCE = 3
;SET TOOL AND BASE
$TOOL = TOOL_DATA[3]
$BASE = BASE_DATA[2]
;HOME
;FOLD PTP HOME Vel=10% DEFAULT
$BWDSTART=FALSE
$H_POS=XHOME
PDAT_ACT=PDEFAULT
FDAT_ACT=FHOME
BAS(#PTP_DAT )
BAS (#VEL_PTP,10 )
PTP XHOME
;ENDFOLD
;USER PROGRAM
;SPEED $VEL.CP
$VEL.CP=0.025
; OUT[TEMP] = 200 
; OUT[vent] = 1 
; OUT[RPM] = 25 
; USER POSES CALLS 
PTP {X 75, Y 30, Z 420, A 0, B 90, C 0} 
; USER POSES CALLS 
LIN {X -34.33, Y -49.21, Z 7.5, A 0, B 90, C 0} C_DIS
WAIT SEC 1 
$OUT[1] = TRUE 
WAIT SEC 2 
LIN {X -34.33, Y -49.21, Z 5.0, A 0, B 90, C 0} C_DIS
LIN {X -34.33, Y -49.21, Z 2.5, A 0, B 90, C 0} C_DIS
LIN {X -31.1, Y -51.31, Z 2.5, A 0, B 90, C 0} C_DIS
LIN {X -27.75, Y -53.2, Z 2.5, A 0, B 90, C 0} C_DIS
LIN {X -24.29, Y -54.86, Z 2.5, A 0, B 90, C 0} C_DIS
LIN {X -20.72, Y -56.31, Z 2.5, A 0, B 90, C 0} C_DIS
LIN {X -17.07, Y -57.52, Z 2.5, A 0, B 90, C 0} C_DIS
LIN {X -13.35, Y -58.5, Z 2.5, A 0, B 90, C 0} C_DIS
LIN {X -9.58, Y -59.23, Z 2.5, A 0, B 90, C 0} C_DIS
LIN {X -5.76, Y -59.72, Z 2.5, A 0, B 90, C 0} C_DIS
LIN {X -1.92, Y -59.97, Z 2.5, A 0, B 90, C 0} C_DIS
LIN {X 1.92, Y -59.97, Z 2.5, A 0, B 90, C 0} C_DIS
LIN {X 5.76, Y -59.72, Z 2.5, A 0, B 90, C 0} C_DIS
LIN {X 9.58, Y -59.23, Z 2.5, A 0, B 90, C 0} C_DIS
LIN {X 13.35, Y -58.5, Z 2.5, A 0, B 90, C 0} C_DIS
LIN {X 17.07, Y -57.52, Z 2.5, A 0, B 90, C 0} C_DIS
LIN {X 20.72, Y -56.31, Z 2.5, A 0, B 90, C 0} C_DIS
LIN {X 24.29, Y -54.86, Z 2.5, A 0, B 90, C 0} C_DIS
LIN {X 27.75, Y -53.2, Z 2.5, A 0, B 90, C 0} C_DIS
LIN {X 31.1, Y -51.31, Z 2.5, A 0, B 90, C 0} C_DIS
LIN {X 34.33, Y -49.21, Z 2.5, A 0, B 90, C 0} C_DIS
LIN {X 37.41, Y -46.91, Z 2.5, A 0, B 90, C 0} C_DIS
LIN {X 40.34, Y -44.42, Z 2.5, A 0, B 90, C 0} C_DIS
LIN {X 43.1, Y -41.74, Z 2.5, A 0, B 90, C 0} C_DIS
LIN {X 45.69, Y -38.89, Z 2.5, A 0, B 90, C 0} C_DIS
LIN {X 48.08, Y -35.89, Z 2.5, A 0, B 90, C 0} C_DIS
LIN {X 50.29, Y -32.73, Z 2.5, A 0, B 90, C 0} C_DIS
LIN {X 52.28, Y -29.44, Z 2.5, A 0, B 90, C 0} C_DIS
LIN {X 54.06, Y -26.03, Z 2.5, A 0, B 90, C 0} C_DIS
LIN {X 55.62, Y -22.52, Z 2.5, A 0, B 90, C 0} C_DIS
LIN {X 56.94, Y -18.91, Z 2.5, A 0, B 90, C 0} C_DIS
LIN {X 58.04, Y -15.22, Z 2.5, A 0, B 90, C 0} C_DIS
LIN {X 58.89, Y -11.47, Z 2.5, A 0, B 90, C 0} C_DIS
LIN {X 59.51, Y -7.67, Z 2.5, A 0, B 90, C 0} C_DIS
LIN {X 59.88, Y -3.84, Z 2.5, A 0, B 90, C 0} C_DIS
LIN {X 60.0, Y 0.0, Z 2.5, A 0, B 90, C 0} C_DIS
LIN {X 59.88, Y 3.84, Z 2.5, A 0, B 90, C 0} C_DIS
LIN {X 59.51, Y 7.67, Z 2.5, A 0, B 90, C 0} C_DIS
LIN {X 58.89, Y 11.47, Z 2.5, A 0, B 90, C 0} C_DIS
LIN {X 58.04, Y 15.22, Z 2.5, A 0, B 90, C 0} C_DIS
LIN {X 56.94, Y 18.91, Z 2.5, A 0, B 90, C 0} C_DIS
LIN {X 55.62, Y 22.52, Z 2.5, A 0, B 90, C 0} C_DIS
LIN {X 54.06, Y 26.03, Z 2.5, A 0, B 90, C 0} C_DIS
LIN {X 52.28, Y 29.44, Z 2.5, A 0, B 90, C 0} C_DIS
LIN {X 50.29, Y 32.73, Z 2.5, A 0, B 90, C 0} C_DIS
LIN {X 48.08, Y 35.89, Z 2.5, A 0, B 90, C 0} C_DIS
LIN {X 45.69, Y 38.89, Z 2.5, A 0, B 90, C 0} C_DIS
LIN {X 43.1, Y 41.74, Z 2.5, A 0, B 90, C 0} C_DIS
LIN {X 40.34, Y 44.42, Z 2.5, A 0, B 90, C 0} C_DIS
LIN {X 37.41, Y 46.91, Z 2.5, A 0, B 90, C 0} C_DIS
LIN {X 34.33, Y 49.21, Z 2.5, A 0, B 90, C 0} C_DIS
LIN {X 31.1, Y 51.31, Z 2.5, A 0, B 90, C 0} C_DIS
LIN {X 27.75, Y 53.2, Z 2.5, A 0, B 90, C 0} C_DIS
LIN {X 24.29, Y 54.86, Z 2.5, A 0, B 90, C 0} C_DIS
LIN {X 20.72, Y 56.31, Z 2.5, A 0, B 90, C 0} C_DIS
LIN {X 17.07, Y 57.52, Z 2.5, A 0, B 90, C 0} C_DIS
LIN {X 13.35, Y 58.5, Z 2.5, A 0, B 90, C 0} C_DIS
LIN {X 9.58, Y 59.23, Z 2.5, A 0, B 90, C 0} C_DIS
LIN {X 5.76, Y 59.72, Z 2.5, A 0, B 90, C 0} C_DIS
LIN {X 1.92, Y 59.97, Z 2.5, A 0, B 90, C 0} C_DIS
LIN {X -1.92, Y 59.97, Z 2.5, A 0, B 90, C 0} C_DIS
LIN {X -5.76, Y 59.72, Z 2.5, A 0, B 90, C 0} C_DIS
LIN {X -9.58, Y 59.23, Z 2.5, A 0, B 90, C 0} C_DIS
LIN {X -13.35, Y 58.5, Z 2.5, A 0, B 90, C 0} C_DIS
LIN {X -17.07, Y 57.52, Z 2.5, A 0, B 90, C 0} C_DIS
LIN {X -20.72, Y 56.31, Z 2.5, A 0, B 90, C 0} C_DIS
LIN {X -24.29, Y 54.86, Z 2.5, A 0, B 90, C 0} C_DIS
LIN {X -27.75, Y 53.2, Z 2.5, A 0, B 90, C 0} C_DIS
LIN {X -31.1, Y 51.31, Z 2.5, A 0, B 90, C 0} C_DIS
LIN {X -34.33, Y 49.21, Z 2.5, A 0, B 90, C 0} C_DIS
LIN {X -37.41, Y 46.91, Z 2.5, A 0, B 90, C 0} C_DIS
LIN {X -40.34, Y 44.42, Z 2.5, A 0, B 90, C 0} C_DIS
LIN {X -43.1, Y 41.74, Z 2.5, A 0, B 90, C 0} C_DIS
LIN {X -45.69, Y 38.89, Z 2.5, A 0, B 90, C 0} C_DIS
LIN {X -48.08, Y 35.89, Z 2.5, A 0, B 90, C 0} C_DIS
LIN {X -50.29, Y 32.73, Z 2.5, A 0, B 90, C 0} C_DIS
LIN {X -52.28, Y 29.44, Z 2.5, A 0, B 90, C 0} C_DIS
LIN {X -54.06, Y 26.03, Z 2.5, A 0, B 90, C 0} C_DIS
LIN {X -55.62, Y 22.52, Z 2.5, A 0, B 90, C 0} C_DIS
LIN {X -56.94, Y 18.91, Z 2.5, A 0, B 90, C 0} C_DIS
LIN {X -58.04, Y 15.22, Z 2.5, A 0, B 90, C 0} C_DIS
LIN {X -58.89, Y 11.47, Z 2.5, A 0, B 90, C 0} C_DIS
LIN {X -59.51, Y 7.67, Z 2.5, A 0, B 90, C 0} C_DIS
LIN {X -59.88, Y 3.84, Z 2.5, A 0, B 90, C 0} C_DIS
LIN {X -60.0, Y -0.0, Z 2.5, A 0, B 90, C 0} C_DIS
LIN {X -59.88, Y -3.84, Z 2.5, A 0, B 90, C 0} C_DIS
LIN {X -59.51, Y -7.67, Z 2.5, A 0, B 90, C 0} C_DIS
LIN {X -58.89, Y -11.47, Z 2.5, A 0, B 90, C 0} C_DIS
LIN {X -58.04, Y -15.22, Z 2.5, A 0, B 90, C 0} C_DIS
LIN {X -56.94, Y -18.91, Z 2.5, A 0, B 90, C 0} C_DIS
LIN {X -55.62, Y -22.52, Z 2.5, A 0, B 90, C 0} C_DIS
LIN {X -54.06, Y -26.03, Z 2.5, A 0, B 90, C 0} C_DIS
LIN {X -52.28, Y -29.44, Z 2.5, A 0, B 90, C 0} C_DIS
LIN {X -50.29, Y -32.73, Z 2.5, A 0, B 90, C 0} C_DIS
LIN {X -48.08, Y -35.89, Z 2.5, A 0, B 90, C 0} C_DIS
LIN {X -45.69, Y -38.89, Z 2.5, A 0, B 90, C 0} C_DIS
LIN {X -43.1, Y -41.74, Z 2.5, A 0, B 90, C 0} C_DIS
LIN {X -40.34, Y -44.42, Z 2.5, A 0, B 90, C 0} C_DIS
LIN {X -37.41, Y -46.91, Z 2.5, A 0, B 90, C 0} C_DIS
LIN {X -34.33, Y -49.21, Z 2.5, A 0, B 90, C 0} C_DIS
LIN {X -13.54, Y 58.45, Z 7.5, A 0, B 90, C 0} C_DIS
LIN {X -13.54, Y 58.45, Z 5.0, A 0, B 90, C 0} C_DIS
LIN {X -17.07, Y 57.52, Z 5.0, A 0, B 90, C 0} C_DIS
LIN {X -17.25, Y 57.46, Z 5.0, A 0, B 90, C 0} C_DIS
LIN {X -20.72, Y 56.31, Z 5.0, A 0, B 90, C 0} C_DIS
LIN {X -20.9, Y 56.24, Z 5.0, A 0, B 90, C 0} C_DIS
LIN {X -24.29, Y 54.86, Z 5.0, A 0, B 90, C 0} C_DIS
LIN {X -24.46, Y 54.78, Z 5.0, A 0, B 90, C 0} C_DIS
LIN {X -27.75, Y 53.2, Z 5.0, A 0, B 90, C 0} C_DIS
LIN {X -27.92, Y 53.1, Z 5.0, A 0, B 90, C 0} C_DIS
LIN {X -31.1, Y 51.31, Z 5.0, A 0, B 90, C 0} C_DIS
LIN {X -31.26, Y 51.2, Z 5.0, A 0, B 90, C 0} C_DIS
LIN {X -34.33, Y 49.21, Z 5.0, A 0, B 90, C 0} C_DIS
LIN {X -34.48, Y 49.1, Z 5.0, A 0, B 90, C 0} C_DIS
LIN {X -37.41, Y 46.91, Z 5.0, A 0, B 90, C 0} C_DIS
LIN {X -37.56, Y 46.79, Z 5.0, A 0, B 90, C 0} C_DIS
LIN {X -40.34, Y 44.42, Z 5.0, A 0, B 90, C 0} C_DIS
LIN {X -40.48, Y 44.28, Z 5.0, A 0, B 90, C 0} C_DIS
LIN {X -43.1, Y 41.74, Z 5.0, A 0, B 90, C 0} C_DIS
LIN {X -43.23, Y 41.6, Z 5.0, A 0, B 90, C 0} C_DIS
LIN {X -45.69, Y 38.89, Z 5.0, A 0, B 90, C 0} C_DIS
LIN {X -45.81, Y 38.74, Z 5.0, A 0, B 90, C 0} C_DIS
LIN {X -48.08, Y 35.89, Z 5.0, A 0, B 90, C 0} C_DIS
LIN {X -48.19, Y 35.73, Z 5.0, A 0, B 90, C 0} C_DIS
LIN {X -50.29, Y 32.73, Z 5.0, A 0, B 90, C 0} C_DIS
LIN {X -50.38, Y 32.57, Z 5.0, A 0, B 90, C 0} C_DIS
LIN {X -52.28, Y 29.44, Z 5.0, A 0, B 90, C 0} C_DIS
LIN {X -52.37, Y 29.27, Z 5.0, A 0, B 90, C 0} C_DIS
LIN {X -54.06, Y 26.03, Z 5.0, A 0, B 90, C 0} C_DIS
LIN {X -54.14, Y 25.86, Z 5.0, A 0, B 90, C 0} C_DIS
LIN {X -55.62, Y 22.52, Z 5.0, A 0, B 90, C 0} C_DIS
LIN {X -55.68, Y 22.34, Z 5.0, A 0, B 90, C 0} C_DIS
LIN {X -56.94, Y 18.91, Z 5.0, A 0, B 90, C 0} C_DIS
LIN {X -57.0, Y 18.72, Z 5.0, A 0, B 90, C 0} C_DIS
LIN {X -58.04, Y 15.22, Z 5.0, A 0, B 90, C 0} C_DIS
LIN {X -58.08, Y 15.03, Z 5.0, A 0, B 90, C 0} C_DIS
LIN {X -58.89, Y 11.47, Z 5.0, A 0, B 90, C 0} C_DIS
LIN {X -58.92, Y 11.28, Z 5.0, A 0, B 90, C 0} C_DIS
LIN {X -59.51, Y 7.67, Z 5.0, A 0, B 90, C 0} C_DIS
LIN {X -59.53, Y 7.48, Z 5.0, A 0, B 90, C 0} C_DIS
LIN {X -59.88, Y 3.84, Z 5.0, A 0, B 90, C 0} C_DIS
LIN {X -59.88, Y 3.65, Z 5.0, A 0, B 90, C 0} C_DIS
LIN {X -60.0, Y -0.0, Z 5.0, A 0, B 90, C 0} C_DIS
LIN {X -59.99, Y -0.19, Z 5.0, A 0, B 90, C 0} C_DIS
LIN {X -59.88, Y -3.84, Z 5.0, A 0, B 90, C 0} C_DIS
LIN {X -59.86, Y -4.04, Z 5.0, A 0, B 90, C 0} C_DIS
LIN {X -59.51, Y -7.67, Z 5.0, A 0, B 90, C 0} C_DIS
LIN {X -59.48, Y -7.86, Z 5.0, A 0, B 90, C 0} C_DIS
LIN {X -58.89, Y -11.47, Z 5.0, A 0, B 90, C 0} C_DIS
LIN {X -58.85, Y -11.66, Z 5.0, A 0, B 90, C 0} C_DIS
LIN {X -58.04, Y -15.22, Z 5.0, A 0, B 90, C 0} C_DIS
LIN {X -57.98, Y -15.4, Z 5.0, A 0, B 90, C 0} C_DIS
LIN {X -56.94, Y -18.91, Z 5.0, A 0, B 90, C 0} C_DIS
LIN {X -56.88, Y -19.09, Z 5.0, A 0, B 90, C 0} C_DIS
LIN {X -55.62, Y -22.52, Z 5.0, A 0, B 90, C 0} C_DIS
LIN {X -55.54, Y -22.69, Z 5.0, A 0, B 90, C 0} C_DIS
LIN {X -54.06, Y -26.03, Z 5.0, A 0, B 90, C 0} C_DIS
LIN {X -53.97, Y -26.2, Z 5.0, A 0, B 90, C 0} C_DIS
LIN {X -52.28, Y -29.44, Z 5.0, A 0, B 90, C 0} C_DIS
LIN {X -52.18, Y -29.61, Z 5.0, A 0, B 90, C 0} C_DIS
LIN {X -50.29, Y -32.73, Z 5.0, A 0, B 90, C 0} C_DIS
LIN {X -50.18, Y -32.89, Z 5.0, A 0, B 90, C 0} C_DIS
LIN {X -48.08, Y -35.89, Z 5.0, A 0, B 90, C 0} C_DIS
LIN {X -47.96, Y -36.04, Z 5.0, A 0, B 90, C 0} C_DIS
LIN {X -45.69, Y -38.89, Z 5.0, A 0, B 90, C 0} C_DIS
LIN {X -45.56, Y -39.04, Z 5.0, A 0, B 90, C 0} C_DIS
LIN {X -43.1, Y -41.74, Z 5.0, A 0, B 90, C 0} C_DIS
LIN {X -42.96, Y -41.87, Z 5.0, A 0, B 90, C 0} C_DIS
LIN {X -40.34, Y -44.42, Z 5.0, A 0, B 90, C 0} C_DIS
LIN {X -40.19, Y -44.54, Z 5.0, A 0, B 90, C 0} C_DIS
LIN {X -37.41, Y -46.91, Z 5.0, A 0, B 90, C 0} C_DIS
LIN {X -37.26, Y -47.02, Z 5.0, A 0, B 90, C 0} C_DIS
LIN {X -34.33, Y -49.21, Z 5.0, A 0, B 90, C 0} C_DIS
LIN {X -34.17, Y -49.32, Z 5.0, A 0, B 90, C 0} C_DIS
LIN {X -31.1, Y -51.31, Z 5.0, A 0, B 90, C 0} C_DIS
LIN {X -30.94, Y -51.4, Z 5.0, A 0, B 90, C 0} C_DIS
LIN {X -27.75, Y -53.2, Z 5.0, A 0, B 90, C 0} C_DIS
LIN {X -27.58, Y -53.28, Z 5.0, A 0, B 90, C 0} C_DIS
LIN {X -24.29, Y -54.86, Z 5.0, A 0, B 90, C 0} C_DIS
LIN {X -24.11, Y -54.94, Z 5.0, A 0, B 90, C 0} C_DIS
LIN {X -20.72, Y -56.31, Z 5.0, A 0, B 90, C 0} C_DIS
LIN {X -20.54, Y -56.37, Z 5.0, A 0, B 90, C 0} C_DIS
LIN {X -17.07, Y -57.52, Z 5.0, A 0, B 90, C 0} C_DIS
LIN {X -16.89, Y -57.57, Z 5.0, A 0, B 90, C 0} C_DIS
LIN {X -13.35, Y -58.5, Z 5.0, A 0, B 90, C 0} C_DIS
LIN {X -13.16, Y -58.53, Z 5.0, A 0, B 90, C 0} C_DIS
LIN {X -9.58, Y -59.23, Z 5.0, A 0, B 90, C 0} C_DIS
LIN {X -9.39, Y -59.26, Z 5.0, A 0, B 90, C 0} C_DIS
LIN {X -5.76, Y -59.72, Z 5.0, A 0, B 90, C 0} C_DIS
LIN {X -5.57, Y -59.74, Z 5.0, A 0, B 90, C 0} C_DIS
LIN {X -1.92, Y -59.97, Z 5.0, A 0, B 90, C 0} C_DIS
LIN {X -1.73, Y -59.97, Z 5.0, A 0, B 90, C 0} C_DIS
LIN {X 1.92, Y -59.97, Z 5.0, A 0, B 90, C 0} C_DIS
LIN {X 2.12, Y -59.96, Z 5.0, A 0, B 90, C 0} C_DIS
LIN {X 5.76, Y -59.72, Z 5.0, A 0, B 90, C 0} C_DIS
LIN {X 5.95, Y -59.7, Z 5.0, A 0, B 90, C 0} C_DIS
LIN {X 9.58, Y -59.23, Z 5.0, A 0, B 90, C 0} C_DIS
LIN {X 9.76, Y -59.19, Z 5.0, A 0, B 90, C 0} C_DIS
LIN {X 13.35, Y -58.5, Z 5.0, A 0, B 90, C 0} C_DIS
LIN {X 13.54, Y -58.45, Z 5.0, A 0, B 90, C 0} C_DIS
LIN {X 17.07, Y -57.52, Z 5.0, A 0, B 90, C 0} C_DIS
LIN {X 17.25, Y -57.46, Z 5.0, A 0, B 90, C 0} C_DIS
LIN {X 20.72, Y -56.31, Z 5.0, A 0, B 90, C 0} C_DIS
LIN {X 20.9, Y -56.24, Z 5.0, A 0, B 90, C 0} C_DIS
LIN {X 24.29, Y -54.86, Z 5.0, A 0, B 90, C 0} C_DIS
LIN {X 24.46, Y -54.78, Z 5.0, A 0, B 90, C 0} C_DIS
LIN {X 27.75, Y -53.2, Z 5.0, A 0, B 90, C 0} C_DIS
LIN {X 27.92, Y -53.1, Z 5.0, A 0, B 90, C 0} C_DIS
LIN {X 31.1, Y -51.31, Z 5.0, A 0, B 90, C 0} C_DIS
LIN {X 31.26, Y -51.2, Z 5.0, A 0, B 90, C 0} C_DIS
LIN {X 34.33, Y -49.21, Z 5.0, A 0, B 90, C 0} C_DIS
LIN {X 34.48, Y -49.1, Z 5.0, A 0, B 90, C 0} C_DIS
LIN {X 37.41, Y -46.91, Z 5.0, A 0, B 90, C 0} C_DIS
LIN {X 37.56, Y -46.79, Z 5.0, A 0, B 90, C 0} C_DIS
LIN {X 40.34, Y -44.42, Z 5.0, A 0, B 90, C 0} C_DIS
LIN {X 40.48, Y -44.28, Z 5.0, A 0, B 90, C 0} C_DIS
LIN {X 43.1, Y -41.74, Z 5.0, A 0, B 90, C 0} C_DIS
LIN {X 43.23, Y -41.6, Z 5.0, A 0, B 90, C 0} C_DIS
LIN {X 45.69, Y -38.89, Z 5.0, A 0, B 90, C 0} C_DIS
LIN {X 45.81, Y -38.74, Z 5.0, A 0, B 90, C 0} C_DIS
LIN {X 48.08, Y -35.89, Z 5.0, A 0, B 90, C 0} C_DIS
LIN {X 48.19, Y -35.73, Z 5.0, A 0, B 90, C 0} C_DIS
LIN {X 50.29, Y -32.73, Z 5.0, A 0, B 90, C 0} C_DIS
LIN {X 50.38, Y -32.57, Z 5.0, A 0, B 90, C 0} C_DIS
LIN {X 52.28, Y -29.44, Z 5.0, A 0, B 90, C 0} C_DIS
LIN {X 52.37, Y -29.27, Z 5.0, A 0, B 90, C 0} C_DIS
LIN {X 54.06, Y -26.03, Z 5.0, A 0, B 90, C 0} C_DIS
LIN {X 54.14, Y -25.86, Z 5.0, A 0, B 90, C 0} C_DIS
LIN {X 55.62, Y -22.52, Z 5.0, A 0, B 90, C 0} C_DIS
LIN {X 55.68, Y -22.34, Z 5.0, A 0, B 90, C 0} C_DIS
LIN {X 56.94, Y -18.91, Z 5.0, A 0, B 90, C 0} C_DIS
LIN {X 57.0, Y -18.72, Z 5.0, A 0, B 90, C 0} C_DIS
LIN {X 58.04, Y -15.22, Z 5.0, A 0, B 90, C 0} C_DIS
LIN {X 58.08, Y -15.03, Z 5.0, A 0, B 90, C 0} C_DIS
LIN {X 58.89, Y -11.47, Z 5.0, A 0, B 90, C 0} C_DIS
LIN {X 58.92, Y -11.28, Z 5.0, A 0, B 90, C 0} C_DIS
LIN {X 59.51, Y -7.67, Z 5.0, A 0, B 90, C 0} C_DIS
LIN {X 59.53, Y -7.48, Z 5.0, A 0, B 90, C 0} C_DIS
LIN {X 59.88, Y -3.84, Z 5.0, A 0, B 90, C 0} C_DIS
LIN {X 59.88, Y -3.65, Z 5.0, A 0, B 90, C 0} C_DIS
LIN {X 60.0, Y -0.0, Z 5.0, A 0, B 90, C 0} C_DIS
LIN {X 59.99, Y 0.19, Z 5.0, A 0, B 90, C 0} C_DIS
LIN {X 59.88, Y 3.84, Z 5.0, A 0, B 90, C 0} C_DIS
LIN {X 59.86, Y 4.04, Z 5.0, A 0, B 90, C 0} C_DIS
LIN {X 59.51, Y 7.67, Z 5.0, A 0, B 90, C 0} C_DIS
LIN {X 59.48, Y 7.86, Z 5.0, A 0, B 90, C 0} C_DIS
LIN {X 58.89, Y 11.47, Z 5.0, A 0, B 90, C 0} C_DIS
LIN {X 58.85, Y 11.66, Z 5.0, A 0, B 90, C 0} C_DIS
LIN {X 58.04, Y 15.22, Z 5.0, A 0, B 90, C 0} C_DIS
LIN {X 57.98, Y 15.4, Z 5.0, A 0, B 90, C 0} C_DIS
LIN {X 56.94, Y 18.91, Z 5.0, A 0, B 90, C 0} C_DIS
LIN {X 56.88, Y 19.09, Z 5.0, A 0, B 90, C 0} C_DIS
LIN {X 55.62, Y 22.52, Z 5.0, A 0, B 90, C 0} C_DIS
LIN {X 55.54, Y 22.69, Z 5.0, A 0, B 90, C 0} C_DIS
LIN {X 54.06, Y 26.03, Z 5.0, A 0, B 90, C 0} C_DIS
LIN {X 53.97, Y 26.2, Z 5.0, A 0, B 90, C 0} C_DIS
LIN {X 52.28, Y 29.44, Z 5.0, A 0, B 90, C 0} C_DIS
LIN {X 52.18, Y 29.61, Z 5.0, A 0, B 90, C 0} C_DIS
LIN {X 50.29, Y 32.73, Z 5.0, A 0, B 90, C 0} C_DIS
LIN {X 50.18, Y 32.89, Z 5.0, A 0, B 90, C 0} C_DIS
LIN {X 48.08, Y 35.89, Z 5.0, A 0, B 90, C 0} C_DIS
LIN {X 47.96, Y 36.04, Z 5.0, A 0, B 90, C 0} C_DIS
LIN {X 45.69, Y 38.89, Z 5.0, A 0, B 90, C 0} C_DIS
LIN {X 45.56, Y 39.04, Z 5.0, A 0, B 90, C 0} C_DIS
LIN {X 43.1, Y 41.74, Z 5.0, A 0, B 90, C 0} C_DIS
LIN {X 42.96, Y 41.87, Z 5.0, A 0, B 90, C 0} C_DIS
LIN {X 40.34, Y 44.42, Z 5.0, A 0, B 90, C 0} C_DIS
LIN {X 40.19, Y 44.54, Z 5.0, A 0, B 90, C 0} C_DIS
LIN {X 37.41, Y 46.91, Z 5.0, A 0, B 90, C 0} C_DIS
LIN {X 37.26, Y 47.02, Z 5.0, A 0, B 90, C 0} C_DIS
LIN {X 34.33, Y 49.21, Z 5.0, A 0, B 90, C 0} C_DIS
LIN {X 34.17, Y 49.32, Z 5.0, A 0, B 90, C 0} C_DIS
LIN {X 31.1, Y 51.31, Z 5.0, A 0, B 90, C 0} C_DIS
LIN {X 30.94, Y 51.4, Z 5.0, A 0, B 90, C 0} C_DIS
LIN {X 27.75, Y 53.2, Z 5.0, A 0, B 90, C 0} C_DIS
LIN {X 27.58, Y 53.28, Z 5.0, A 0, B 90, C 0} C_DIS
LIN {X 24.29, Y 54.86, Z 5.0, A 0, B 90, C 0} C_DIS
LIN {X 24.11, Y 54.94, Z 5.0, A 0, B 90, C 0} C_DIS
LIN {X 20.72, Y 56.31, Z 5.0, A 0, B 90, C 0} C_DIS
LIN {X 20.54, Y 56.37, Z 5.0, A 0, B 90, C 0} C_DIS
LIN {X 17.07, Y 57.52, Z 5.0, A 0, B 90, C 0} C_DIS
LIN {X 16.89, Y 57.57, Z 5.0, A 0, B 90, C 0} C_DIS
LIN {X 13.35, Y 58.5, Z 5.0, A 0, B 90, C 0} C_DIS
LIN {X 13.16, Y 58.53, Z 5.0, A 0, B 90, C 0} C_DIS
LIN {X 9.58, Y 59.23, Z 5.0, A 0, B 90, C 0} C_DIS
LIN {X 9.39, Y 59.26, Z 5.0, A 0, B 90, C 0} C_DIS
LIN {X 5.76, Y 59.72, Z 5.0, A 0, B 90, C 0} C_DIS
LIN {X 5.57, Y 59.74, Z 5.0, A 0, B 90, C 0} C_DIS
LIN {X 1.92, Y 59.97, Z 5.0, A 0, B 90, C 0} C_DIS
LIN {X 1.73, Y 59.97, Z 5.0, A 0, B 90, C 0} C_DIS
LIN {X -1.92, Y 59.97, Z 5.0, A 0, B 90, C 0} C_DIS
LIN {X -2.12, Y 59.96, Z 5.0, A 0, B 90, C 0} C_DIS
LIN {X -5.76, Y 59.72, Z 5.0, A 0, B 90, C 0} C_DIS
LIN {X -5.95, Y 59.7, Z 5.0, A 0, B 90, C 0} C_DIS
LIN {X -9.58, Y 59.23, Z 5.0, A 0, B 90, C 0} C_DIS
LIN {X -9.76, Y 59.19, Z 5.0, A 0, B 90, C 0} C_DIS
LIN {X -13.35, Y 58.5, Z 5.0, A 0, B 90, C 0} C_DIS
LIN {X -13.54, Y 58.45, Z 5.0, A 0, B 90, C 0} C_DIS
LIN {X -34.33, Y -49.21, Z 10.0, A 0, B 90, C 0} C_DIS
LIN {X -34.33, Y -49.21, Z 7.5, A 0, B 90, C 0} C_DIS
LIN {X -34.0, Y -49.42, Z 7.5, A 0, B 90, C 0} C_DIS
LIN {X -31.1, Y -51.31, Z 7.5, A 0, B 90, C 0} C_DIS
LIN {X -30.77, Y -51.5, Z 7.5, A 0, B 90, C 0} C_DIS
LIN {X -27.75, Y -53.2, Z 7.5, A 0, B 90, C 0} C_DIS
LIN {X -27.41, Y -53.36, Z 7.5, A 0, B 90, C 0} C_DIS
LIN {X -24.29, Y -54.86, Z 7.5, A 0, B 90, C 0} C_DIS
LIN {X -23.93, Y -55.01, Z 7.5, A 0, B 90, C 0} C_DIS
LIN {X -20.72, Y -56.31, Z 7.5, A 0, B 90, C 0} C_DIS
LIN {X -20.36, Y -56.43, Z 7.5, A 0, B 90, C 0} C_DIS
LIN {X -17.07, Y -57.52, Z 7.5, A 0, B 90, C 0} C_DIS
LIN {X -16.7, Y -57.62, Z 7.5, A 0, B 90, C 0} C_DIS
LIN {X -13.35, Y -58.5, Z 7.5, A 0, B 90, C 0} C_DIS
LIN {X -12.97, Y -58.57, Z 7.5, A 0, B 90, C 0} C_DIS
LIN {X -9.58, Y -59.23, Z 7.5, A 0, B 90, C 0} C_DIS
LIN {X -9.19, Y -59.28, Z 7.5, A 0, B 90, C 0} C_DIS
LIN {X -5.76, Y -59.72, Z 7.5, A 0, B 90, C 0} C_DIS
LIN {X -5.38, Y -59.75, Z 7.5, A 0, B 90, C 0} C_DIS
LIN {X -1.92, Y -59.97, Z 7.5, A 0, B 90, C 0} C_DIS
LIN {X -1.54, Y -59.97, Z 7.5, A 0, B 90, C 0} C_DIS
LIN {X 1.92, Y -59.97, Z 7.5, A 0, B 90, C 0} C_DIS
LIN {X 2.31, Y -59.94, Z 7.5, A 0, B 90, C 0} C_DIS
LIN {X 5.76, Y -59.72, Z 7.5, A 0, B 90, C 0} C_DIS
LIN {X 6.14, Y -59.67, Z 7.5, A 0, B 90, C 0} C_DIS
LIN {X 9.58, Y -59.23, Z 7.5, A 0, B 90, C 0} C_DIS
LIN {X 9.95, Y -59.16, Z 7.5, A 0, B 90, C 0} C_DIS
LIN {X 13.35, Y -58.5, Z 7.5, A 0, B 90, C 0} C_DIS
LIN {X 13.72, Y -58.4, Z 7.5, A 0, B 90, C 0} C_DIS
LIN {X 17.07, Y -57.52, Z 7.5, A 0, B 90, C 0} C_DIS
LIN {X 17.44, Y -57.4, Z 7.5, A 0, B 90, C 0} C_DIS
LIN {X 20.72, Y -56.31, Z 7.5, A 0, B 90, C 0} C_DIS
LIN {X 21.08, Y -56.16, Z 7.5, A 0, B 90, C 0} C_DIS
LIN {X 24.29, Y -54.86, Z 7.5, A 0, B 90, C 0} C_DIS
LIN {X 24.63, Y -54.7, Z 7.5, A 0, B 90, C 0} C_DIS
LIN {X 27.75, Y -53.2, Z 7.5, A 0, B 90, C 0} C_DIS
LIN {X 28.09, Y -53.01, Z 7.5, A 0, B 90, C 0} C_DIS
LIN {X 31.1, Y -51.31, Z 7.5, A 0, B 90, C 0} C_DIS
LIN {X 31.43, Y -51.1, Z 7.5, A 0, B 90, C 0} C_DIS
LIN {X 34.33, Y -49.21, Z 7.5, A 0, B 90, C 0} C_DIS
LIN {X 34.64, Y -48.98, Z 7.5, A 0, B 90, C 0} C_DIS
LIN {X 37.41, Y -46.91, Z 7.5, A 0, B 90, C 0} C_DIS
LIN {X 37.7, Y -46.66, Z 7.5, A 0, B 90, C 0} C_DIS
LIN {X 40.34, Y -44.42, Z 7.5, A 0, B 90, C 0} C_DIS
LIN {X 40.61, Y -44.15, Z 7.5, A 0, B 90, C 0} C_DIS
LIN {X 43.1, Y -41.74, Z 7.5, A 0, B 90, C 0} C_DIS
LIN {X 43.36, Y -41.46, Z 7.5, A 0, B 90, C 0} C_DIS
LIN {X 45.69, Y -38.89, Z 7.5, A 0, B 90, C 0} C_DIS
LIN {X 45.93, Y -38.59, Z 7.5, A 0, B 90, C 0} C_DIS
LIN {X 48.08, Y -35.89, Z 7.5, A 0, B 90, C 0} C_DIS
LIN {X 48.3, Y -35.57, Z 7.5, A 0, B 90, C 0} C_DIS
LIN {X 50.29, Y -32.73, Z 7.5, A 0, B 90, C 0} C_DIS
LIN {X 50.48, Y -32.4, Z 7.5, A 0, B 90, C 0} C_DIS
LIN {X 52.28, Y -29.44, Z 7.5, A 0, B 90, C 0} C_DIS
LIN {X 52.46, Y -29.1, Z 7.5, A 0, B 90, C 0} C_DIS
LIN {X 54.06, Y -26.03, Z 7.5, A 0, B 90, C 0} C_DIS
LIN {X 54.21, Y -25.68, Z 7.5, A 0, B 90, C 0} C_DIS
LIN {X 55.62, Y -22.52, Z 7.5, A 0, B 90, C 0} C_DIS
LIN {X 55.75, Y -22.16, Z 7.5, A 0, B 90, C 0} C_DIS
LIN {X 56.94, Y -18.91, Z 7.5, A 0, B 90, C 0} C_DIS
LIN {X 57.05, Y -18.54, Z 7.5, A 0, B 90, C 0} C_DIS
LIN {X 58.04, Y -15.22, Z 7.5, A 0, B 90, C 0} C_DIS
LIN {X 58.12, Y -14.84, Z 7.5, A 0, B 90, C 0} C_DIS
LIN {X 58.89, Y -11.47, Z 7.5, A 0, B 90, C 0} C_DIS
LIN {X 58.95, Y -11.09, Z 7.5, A 0, B 90, C 0} C_DIS
LIN {X 59.51, Y -7.67, Z 7.5, A 0, B 90, C 0} C_DIS
LIN {X 59.54, Y -7.29, Z 7.5, A 0, B 90, C 0} C_DIS
LIN {X 59.88, Y -3.84, Z 7.5, A 0, B 90, C 0} C_DIS
LIN {X 59.89, Y -3.46, Z 7.5, A 0, B 90, C 0} C_DIS
LIN {X 60.0, Y -0.0, Z 7.5, A 0, B 90, C 0} C_DIS
LIN {X 59.99, Y 0.38, Z 7.5, A 0, B 90, C 0} C_DIS
LIN {X 59.88, Y 3.84, Z 7.5, A 0, B 90, C 0} C_DIS
LIN {X 59.84, Y 4.23, Z 7.5, A 0, B 90, C 0} C_DIS
LIN {X 59.51, Y 7.67, Z 7.5, A 0, B 90, C 0} C_DIS
LIN {X 59.45, Y 8.05, Z 7.5, A 0, B 90, C 0} C_DIS
LIN {X 58.89, Y 11.47, Z 7.5, A 0, B 90, C 0} C_DIS
LIN {X 58.81, Y 11.84, Z 7.5, A 0, B 90, C 0} C_DIS
LIN {X 58.04, Y 15.22, Z 7.5, A 0, B 90, C 0} C_DIS
LIN {X 57.93, Y 15.59, Z 7.5, A 0, B 90, C 0} C_DIS
LIN {X 56.94, Y 18.91, Z 7.5, A 0, B 90, C 0} C_DIS
LIN {X 56.81, Y 19.27, Z 7.5, A 0, B 90, C 0} C_DIS
LIN {X 55.62, Y 22.52, Z 7.5, A 0, B 90, C 0} C_DIS
LIN {X 55.46, Y 22.87, Z 7.5, A 0, B 90, C 0} C_DIS
LIN {X 54.06, Y 26.03, Z 7.5, A 0, B 90, C 0} C_DIS
LIN {X 53.88, Y 26.37, Z 7.5, A 0, B 90, C 0} C_DIS
LIN {X 52.28, Y 29.44, Z 7.5, A 0, B 90, C 0} C_DIS
LIN {X 52.08, Y 29.77, Z 7.5, A 0, B 90, C 0} C_DIS
LIN {X 50.29, Y 32.73, Z 7.5, A 0, B 90, C 0} C_DIS
LIN {X 50.07, Y 33.05, Z 7.5, A 0, B 90, C 0} C_DIS
LIN {X 48.08, Y 35.89, Z 7.5, A 0, B 90, C 0} C_DIS
LIN {X 47.85, Y 36.19, Z 7.5, A 0, B 90, C 0} C_DIS
LIN {X 45.69, Y 38.89, Z 7.5, A 0, B 90, C 0} C_DIS
LIN {X 45.43, Y 39.18, Z 7.5, A 0, B 90, C 0} C_DIS
LIN {X 43.1, Y 41.74, Z 7.5, A 0, B 90, C 0} C_DIS
LIN {X 42.82, Y 42.01, Z 7.5, A 0, B 90, C 0} C_DIS
LIN {X 40.34, Y 44.42, Z 7.5, A 0, B 90, C 0} C_DIS
LIN {X 40.05, Y 44.67, Z 7.5, A 0, B 90, C 0} C_DIS
LIN {X 37.41, Y 46.91, Z 7.5, A 0, B 90, C 0} C_DIS
LIN {X 37.1, Y 47.14, Z 7.5, A 0, B 90, C 0} C_DIS
LIN {X 34.33, Y 49.21, Z 7.5, A 0, B 90, C 0} C_DIS
LIN {X 34.0, Y 49.42, Z 7.5, A 0, B 90, C 0} C_DIS
LIN {X 31.1, Y 51.31, Z 7.5, A 0, B 90, C 0} C_DIS
LIN {X 30.77, Y 51.5, Z 7.5, A 0, B 90, C 0} C_DIS
LIN {X 27.75, Y 53.2, Z 7.5, A 0, B 90, C 0} C_DIS
LIN {X 27.41, Y 53.36, Z 7.5, A 0, B 90, C 0} C_DIS
LIN {X 24.29, Y 54.86, Z 7.5, A 0, B 90, C 0} C_DIS
LIN {X 23.93, Y 55.01, Z 7.5, A 0, B 90, C 0} C_DIS
LIN {X 20.72, Y 56.31, Z 7.5, A 0, B 90, C 0} C_DIS
LIN {X 20.36, Y 56.43, Z 7.5, A 0, B 90, C 0} C_DIS
LIN {X 17.07, Y 57.52, Z 7.5, A 0, B 90, C 0} C_DIS
LIN {X 16.7, Y 57.62, Z 7.5, A 0, B 90, C 0} C_DIS
LIN {X 13.35, Y 58.5, Z 7.5, A 0, B 90, C 0} C_DIS
LIN {X 12.97, Y 58.57, Z 7.5, A 0, B 90, C 0} C_DIS
LIN {X 9.58, Y 59.23, Z 7.5, A 0, B 90, C 0} C_DIS
LIN {X 9.19, Y 59.28, Z 7.5, A 0, B 90, C 0} C_DIS
LIN {X 5.76, Y 59.72, Z 7.5, A 0, B 90, C 0} C_DIS
LIN {X 5.38, Y 59.75, Z 7.5, A 0, B 90, C 0} C_DIS
LIN {X 1.92, Y 59.97, Z 7.5, A 0, B 90, C 0} C_DIS
LIN {X 1.54, Y 59.97, Z 7.5, A 0, B 90, C 0} C_DIS
LIN {X -1.92, Y 59.97, Z 7.5, A 0, B 90, C 0} C_DIS
LIN {X -2.31, Y 59.94, Z 7.5, A 0, B 90, C 0} C_DIS
LIN {X -5.76, Y 59.72, Z 7.5, A 0, B 90, C 0} C_DIS
LIN {X -6.14, Y 59.67, Z 7.5, A 0, B 90, C 0} C_DIS
LIN {X -9.58, Y 59.23, Z 7.5, A 0, B 90, C 0} C_DIS
LIN {X -9.95, Y 59.16, Z 7.5, A 0, B 90, C 0} C_DIS
LIN {X -13.35, Y 58.5, Z 7.5, A 0, B 90, C 0} C_DIS
LIN {X -13.72, Y 58.4, Z 7.5, A 0, B 90, C 0} C_DIS
LIN {X -17.07, Y 57.52, Z 7.5, A 0, B 90, C 0} C_DIS
LIN {X -17.44, Y 57.4, Z 7.5, A 0, B 90, C 0} C_DIS
LIN {X -20.72, Y 56.31, Z 7.5, A 0, B 90, C 0} C_DIS
LIN {X -21.08, Y 56.16, Z 7.5, A 0, B 90, C 0} C_DIS
LIN {X -24.29, Y 54.86, Z 7.5, A 0, B 90, C 0} C_DIS
LIN {X -24.63, Y 54.7, Z 7.5, A 0, B 90, C 0} C_DIS
LIN {X -27.75, Y 53.2, Z 7.5, A 0, B 90, C 0} C_DIS
LIN {X -28.09, Y 53.01, Z 7.5, A 0, B 90, C 0} C_DIS
LIN {X -31.1, Y 51.31, Z 7.5, A 0, B 90, C 0} C_DIS
LIN {X -31.43, Y 51.1, Z 7.5, A 0, B 90, C 0} C_DIS
LIN {X -34.33, Y 49.21, Z 7.5, A 0, B 90, C 0} C_DIS
LIN {X -34.64, Y 48.98, Z 7.5, A 0, B 90, C 0} C_DIS
LIN {X -37.41, Y 46.91, Z 7.5, A 0, B 90, C 0} C_DIS
LIN {X -37.7, Y 46.66, Z 7.5, A 0, B 90, C 0} C_DIS
LIN {X -40.34, Y 44.42, Z 7.5, A 0, B 90, C 0} C_DIS
LIN {X -40.61, Y 44.15, Z 7.5, A 0, B 90, C 0} C_DIS
LIN {X -43.1, Y 41.74, Z 7.5, A 0, B 90, C 0} C_DIS
LIN {X -43.36, Y 41.46, Z 7.5, A 0, B 90, C 0} C_DIS
LIN {X -45.69, Y 38.89, Z 7.5, A 0, B 90, C 0} C_DIS
LIN {X -45.93, Y 38.59, Z 7.5, A 0, B 90, C 0} C_DIS
LIN {X -48.08, Y 35.89, Z 7.5, A 0, B 90, C 0} C_DIS
LIN {X -48.3, Y 35.57, Z 7.5, A 0, B 90, C 0} C_DIS
LIN {X -50.29, Y 32.73, Z 7.5, A 0, B 90, C 0} C_DIS
LIN {X -50.48, Y 32.4, Z 7.5, A 0, B 90, C 0} C_DIS
LIN {X -52.28, Y 29.44, Z 7.5, A 0, B 90, C 0} C_DIS
LIN {X -52.46, Y 29.1, Z 7.5, A 0, B 90, C 0} C_DIS
LIN {X -54.06, Y 26.03, Z 7.5, A 0, B 90, C 0} C_DIS
LIN {X -54.21, Y 25.68, Z 7.5, A 0, B 90, C 0} C_DIS
LIN {X -55.62, Y 22.52, Z 7.5, A 0, B 90, C 0} C_DIS
LIN {X -55.75, Y 22.16, Z 7.5, A 0, B 90, C 0} C_DIS
LIN {X -56.94, Y 18.91, Z 7.5, A 0, B 90, C 0} C_DIS
LIN {X -57.05, Y 18.54, Z 7.5, A 0, B 90, C 0} C_DIS
LIN {X -58.04, Y 15.22, Z 7.5, A 0, B 90, C 0} C_DIS
LIN {X -58.12, Y 14.84, Z 7.5, A 0, B 90, C 0} C_DIS
LIN {X -58.89, Y 11.47, Z 7.5, A 0, B 90, C 0} C_DIS
LIN {X -58.95, Y 11.09, Z 7.5, A 0, B 90, C 0} C_DIS
LIN {X -59.51, Y 7.67, Z 7.5, A 0, B 90, C 0} C_DIS
LIN {X -59.54, Y 7.29, Z 7.5, A 0, B 90, C 0} C_DIS
LIN {X -59.88, Y 3.84, Z 7.5, A 0, B 90, C 0} C_DIS
LIN {X -59.89, Y 3.46, Z 7.5, A 0, B 90, C 0} C_DIS
LIN {X -60.0, Y -0.0, Z 7.5, A 0, B 90, C 0} C_DIS
LIN {X -59.99, Y -0.38, Z 7.5, A 0, B 90, C 0} C_DIS
LIN {X -59.88, Y -3.84, Z 7.5, A 0, B 90, C 0} C_DIS
LIN {X -59.84, Y -4.23, Z 7.5, A 0, B 90, C 0} C_DIS
LIN {X -59.51, Y -7.67, Z 7.5, A 0, B 90, C 0} C_DIS
LIN {X -59.45, Y -8.05, Z 7.5, A 0, B 90, C 0} C_DIS
LIN {X -58.89, Y -11.47, Z 7.5, A 0, B 90, C 0} C_DIS
LIN {X -58.81, Y -11.84, Z 7.5, A 0, B 90, C 0} C_DIS
LIN {X -58.04, Y -15.22, Z 7.5, A 0, B 90, C 0} C_DIS
LIN {X -57.93, Y -15.59, Z 7.5, A 0, B 90, C 0} C_DIS
LIN {X -56.94, Y -18.91, Z 7.5, A 0, B 90, C 0} C_DIS
LIN {X -56.81, Y -19.27, Z 7.5, A 0, B 90, C 0} C_DIS
LIN {X -55.62, Y -22.52, Z 7.5, A 0, B 90, C 0} C_DIS
LIN {X -55.46, Y -22.87, Z 7.5, A 0, B 90, C 0} C_DIS
LIN {X -54.06, Y -26.03, Z 7.5, A 0, B 90, C 0} C_DIS
LIN {X -53.88, Y -26.37, Z 7.5, A 0, B 90, C 0} C_DIS
LIN {X -52.28, Y -29.44, Z 7.5, A 0, B 90, C 0} C_DIS
LIN {X -52.08, Y -29.77, Z 7.5, A 0, B 90, C 0} C_DIS
LIN {X -50.29, Y -32.73, Z 7.5, A 0, B 90, C 0} C_DIS
LIN {X -50.07, Y -33.05, Z 7.5, A 0, B 90, C 0} C_DIS
LIN {X -48.08, Y -35.89, Z 7.5, A 0, B 90, C 0} C_DIS
LIN {X -47.85, Y -36.19, Z 7.5, A 0, B 90, C 0} C_DIS
LIN {X -45.69, Y -38.89, Z 7.5, A 0, B 90, C 0} C_DIS
LIN {X -45.43, Y -39.18, Z 7.5, A 0, B 90, C 0} C_DIS
LIN {X -43.1, Y -41.74, Z 7.5, A 0, B 90, C 0} C_DIS
LIN {X -42.82, Y -42.01, Z 7.5, A 0, B 90, C 0} C_DIS
LIN {X -40.34, Y -44.42, Z 7.5, A 0, B 90, C 0} C_DIS
LIN {X -40.05, Y -44.67, Z 7.5, A 0, B 90, C 0} C_DIS
LIN {X -37.41, Y -46.91, Z 7.5, A 0, B 90, C 0} C_DIS
LIN {X -37.1, Y -47.14, Z 7.5, A 0, B 90, C 0} C_DIS
LIN {X -34.33, Y -49.21, Z 7.5, A 0, B 90, C 0} C_DIS
LIN {X -34.33, Y -49.21, Z 12.5, A 0, B 90, C 0} C_DIS
LIN {X -34.33, Y -49.21, Z 10.0, A 0, B 90, C 0} C_DIS
LIN {X -33.84, Y -49.53, Z 10.0, A 0, B 90, C 0} C_DIS
LIN {X -31.1, Y -51.31, Z 10.0, A 0, B 90, C 0} C_DIS
LIN {X -30.6, Y -51.59, Z 10.0, A 0, B 90, C 0} C_DIS
LIN {X -27.75, Y -53.2, Z 10.0, A 0, B 90, C 0} C_DIS
LIN {X -27.23, Y -53.45, Z 10.0, A 0, B 90, C 0} C_DIS
LIN {X -24.29, Y -54.86, Z 10.0, A 0, B 90, C 0} C_DIS
LIN {X -23.75, Y -55.08, Z 10.0, A 0, B 90, C 0} C_DIS
LIN {X -20.72, Y -56.31, Z 10.0, A 0, B 90, C 0} C_DIS
LIN {X -20.17, Y -56.49, Z 10.0, A 0, B 90, C 0} C_DIS
LIN {X -17.07, Y -57.52, Z 10.0, A 0, B 90, C 0} C_DIS
LIN {X -16.51, Y -57.67, Z 10.0, A 0, B 90, C 0} C_DIS
LIN {X -13.35, Y -58.5, Z 10.0, A 0, B 90, C 0} C_DIS
LIN {X -12.78, Y -58.61, Z 10.0, A 0, B 90, C 0} C_DIS
LIN {X -9.58, Y -59.23, Z 10.0, A 0, B 90, C 0} C_DIS
LIN {X -9.0, Y -59.3, Z 10.0, A 0, B 90, C 0} C_DIS
LIN {X -5.76, Y -59.72, Z 10.0, A 0, B 90, C 0} C_DIS
LIN {X -5.19, Y -59.76, Z 10.0, A 0, B 90, C 0} C_DIS
LIN {X -1.92, Y -59.97, Z 10.0, A 0, B 90, C 0} C_DIS
LIN {X -1.35, Y -59.97, Z 10.0, A 0, B 90, C 0} C_DIS
LIN {X 1.92, Y -59.97, Z 10.0, A 0, B 90, C 0} C_DIS
LIN {X 2.5, Y -59.93, Z 10.0, A 0, B 90, C 0} C_DIS
LIN {X 5.76, Y -59.72, Z 10.0, A 0, B 90, C 0} C_DIS
LIN {X 6.33, Y -59.65, Z 10.0, A 0, B 90, C 0} C_DIS
LIN {X 9.58, Y -59.23, Z 10.0, A 0, B 90, C 0} C_DIS
LIN {X 10.14, Y -59.12, Z 10.0, A 0, B 90, C 0} C_DIS
LIN {X 13.35, Y -58.5, Z 10.0, A 0, B 90, C 0} C_DIS
LIN {X 13.91, Y -58.35, Z 10.0, A 0, B 90, C 0} C_DIS
LIN {X 17.07, Y -57.52, Z 10.0, A 0, B 90, C 0} C_DIS
LIN {X 17.62, Y -57.34, Z 10.0, A 0, B 90, C 0} C_DIS
LIN {X 20.72, Y -56.31, Z 10.0, A 0, B 90, C 0} C_DIS
LIN {X 21.26, Y -56.09, Z 10.0, A 0, B 90, C 0} C_DIS
LIN {X 24.29, Y -54.86, Z 10.0, A 0, B 90, C 0} C_DIS
LIN {X 24.81, Y -54.61, Z 10.0, A 0, B 90, C 0} C_DIS
LIN {X 27.75, Y -53.2, Z 10.0, A 0, B 90, C 0} C_DIS
LIN {X 28.25, Y -52.91, Z 10.0, A 0, B 90, C 0} C_DIS
LIN {X 31.1, Y -51.31, Z 10.0, A 0, B 90, C 0} C_DIS
LIN {X 31.59, Y -50.99, Z 10.0, A 0, B 90, C 0} C_DIS
LIN {X 34.33, Y -49.21, Z 10.0, A 0, B 90, C 0} C_DIS
LIN {X 34.79, Y -48.87, Z 10.0, A 0, B 90, C 0} C_DIS
LIN {X 37.41, Y -46.91, Z 10.0, A 0, B 90, C 0} C_DIS
LIN {X 37.85, Y -46.54, Z 10.0, A 0, B 90, C 0} C_DIS
LIN {X 40.34, Y -44.42, Z 10.0, A 0, B 90, C 0} C_DIS
LIN {X 40.75, Y -44.02, Z 10.0, A 0, B 90, C 0} C_DIS
LIN {X 43.1, Y -41.74, Z 10.0, A 0, B 90, C 0} C_DIS
LIN {X 43.49, Y -41.31, Z 10.0, A 0, B 90, C 0} C_DIS
LIN {X 45.69, Y -38.89, Z 10.0, A 0, B 90, C 0} C_DIS
LIN {X 46.05, Y -38.44, Z 10.0, A 0, B 90, C 0} C_DIS
LIN {X 48.08, Y -35.89, Z 10.0, A 0, B 90, C 0} C_DIS
LIN {X 48.41, Y -35.41, Z 10.0, A 0, B 90, C 0} C_DIS
LIN {X 50.29, Y -32.73, Z 10.0, A 0, B 90, C 0} C_DIS
LIN {X 50.58, Y -32.24, Z 10.0, A 0, B 90, C 0} C_DIS
LIN {X 52.28, Y -29.44, Z 10.0, A 0, B 90, C 0} C_DIS
LIN {X 52.55, Y -28.93, Z 10.0, A 0, B 90, C 0} C_DIS
LIN {X 54.06, Y -26.03, Z 10.0, A 0, B 90, C 0} C_DIS
LIN {X 54.29, Y -25.51, Z 10.0, A 0, B 90, C 0} C_DIS
LIN {X 55.62, Y -22.52, Z 10.0, A 0, B 90, C 0} C_DIS
LIN {X 55.81, Y -21.97, Z 10.0, A 0, B 90, C 0} C_DIS
LIN {X 56.94, Y -18.91, Z 10.0, A 0, B 90, C 0} C_DIS
LIN {X 57.11, Y -18.35, Z 10.0, A 0, B 90, C 0} C_DIS
LIN {X 58.04, Y -15.22, Z 10.0, A 0, B 90, C 0} C_DIS
LIN {X 58.17, Y -14.66, Z 10.0, A 0, B 90, C 0} C_DIS
LIN {X 58.89, Y -11.47, Z 10.0, A 0, B 90, C 0} C_DIS
LIN {X 58.99, Y -10.9, Z 10.0, A 0, B 90, C 0} C_DIS
LIN {X 59.51, Y -7.67, Z 10.0, A 0, B 90, C 0} C_DIS
LIN {X 59.56, Y -7.1, Z 10.0, A 0, B 90, C 0} C_DIS
LIN {X 59.88, Y -3.84, Z 10.0, A 0, B 90, C 0} C_DIS
LIN {X 59.9, Y -3.27, Z 10.0, A 0, B 90, C 0} C_DIS
LIN {X 60.0, Y 0.0, Z 10.0, A 0, B 90, C 0} C_DIS
LIN {X 59.98, Y 0.58, Z 10.0, A 0, B 90, C 0} C_DIS
LIN {X 59.88, Y 3.84, Z 10.0, A 0, B 90, C 0} C_DIS
LIN {X 59.82, Y 4.42, Z 10.0, A 0, B 90, C 0} C_DIS
LIN {X 59.51, Y 7.67, Z 10.0, A 0, B 90, C 0} C_DIS
LIN {X 59.42, Y 8.24, Z 10.0, A 0, B 90, C 0} C_DIS
LIN {X 58.89, Y 11.47, Z 10.0, A 0, B 90, C 0} C_DIS
LIN {X 58.77, Y 12.03, Z 10.0, A 0, B 90, C 0} C_DIS
LIN {X 58.04, Y 15.22, Z 10.0, A 0, B 90, C 0} C_DIS
LIN {X 57.87, Y 15.77, Z 10.0, A 0, B 90, C 0} C_DIS
LIN {X 56.94, Y 18.91, Z 10.0, A 0, B 90, C 0} C_DIS
LIN {X 56.74, Y 19.45, Z 10.0, A 0, B 90, C 0} C_DIS
LIN {X 55.62, Y 22.52, Z 10.0, A 0, B 90, C 0} C_DIS
LIN {X 55.38, Y 23.04, Z 10.0, A 0, B 90, C 0} C_DIS
LIN {X 54.06, Y 26.03, Z 10.0, A 0, B 90, C 0} C_DIS
LIN {X 53.79, Y 26.54, Z 10.0, A 0, B 90, C 0} C_DIS
LIN {X 52.28, Y 29.44, Z 10.0, A 0, B 90, C 0} C_DIS
LIN {X 51.98, Y 29.94, Z 10.0, A 0, B 90, C 0} C_DIS
LIN {X 50.29, Y 32.73, Z 10.0, A 0, B 90, C 0} C_DIS
LIN {X 49.96, Y 33.21, Z 10.0, A 0, B 90, C 0} C_DIS
LIN {X 48.08, Y 35.89, Z 10.0, A 0, B 90, C 0} C_DIS
LIN {X 47.73, Y 36.34, Z 10.0, A 0, B 90, C 0} C_DIS
LIN {X 45.69, Y 38.89, Z 10.0, A 0, B 90, C 0} C_DIS
LIN {X 45.3, Y 39.32, Z 10.0, A 0, B 90, C 0} C_DIS
LIN {X 43.1, Y 41.74, Z 10.0, A 0, B 90, C 0} C_DIS
LIN {X 42.69, Y 42.14, Z 10.0, A 0, B 90, C 0} C_DIS
LIN {X 40.34, Y 44.42, Z 10.0, A 0, B 90, C 0} C_DIS
LIN {X 39.9, Y 44.79, Z 10.0, A 0, B 90, C 0} C_DIS
LIN {X 37.41, Y 46.91, Z 10.0, A 0, B 90, C 0} C_DIS
LIN {X 36.95, Y 47.25, Z 10.0, A 0, B 90, C 0} C_DIS
LIN {X 34.33, Y 49.21, Z 10.0, A 0, B 90, C 0} C_DIS
LIN {X 33.84, Y 49.53, Z 10.0, A 0, B 90, C 0} C_DIS
LIN {X 31.1, Y 51.31, Z 10.0, A 0, B 90, C 0} C_DIS
LIN {X 30.6, Y 51.59, Z 10.0, A 0, B 90, C 0} C_DIS
LIN {X 27.75, Y 53.2, Z 10.0, A 0, B 90, C 0} C_DIS
LIN {X 27.23, Y 53.45, Z 10.0, A 0, B 90, C 0} C_DIS
LIN {X 24.29, Y 54.86, Z 10.0, A 0, B 90, C 0} C_DIS
LIN {X 23.75, Y 55.08, Z 10.0, A 0, B 90, C 0} C_DIS
LIN {X 20.72, Y 56.31, Z 10.0, A 0, B 90, C 0} C_DIS
LIN {X 20.17, Y 56.49, Z 10.0, A 0, B 90, C 0} C_DIS
LIN {X 17.07, Y 57.52, Z 10.0, A 0, B 90, C 0} C_DIS
LIN {X 16.51, Y 57.67, Z 10.0, A 0, B 90, C 0} C_DIS
LIN {X 13.35, Y 58.5, Z 10.0, A 0, B 90, C 0} C_DIS
LIN {X 12.78, Y 58.61, Z 10.0, A 0, B 90, C 0} C_DIS
LIN {X 9.58, Y 59.23, Z 10.0, A 0, B 90, C 0} C_DIS
LIN {X 9.0, Y 59.3, Z 10.0, A 0, B 90, C 0} C_DIS
LIN {X 5.76, Y 59.72, Z 10.0, A 0, B 90, C 0} C_DIS
LIN {X 5.19, Y 59.76, Z 10.0, A 0, B 90, C 0} C_DIS
LIN {X 1.92, Y 59.97, Z 10.0, A 0, B 90, C 0} C_DIS
LIN {X 1.35, Y 59.97, Z 10.0, A 0, B 90, C 0} C_DIS
LIN {X -1.92, Y 59.97, Z 10.0, A 0, B 90, C 0} C_DIS
LIN {X -2.5, Y 59.93, Z 10.0, A 0, B 90, C 0} C_DIS
LIN {X -5.76, Y 59.72, Z 10.0, A 0, B 90, C 0} C_DIS
LIN {X -6.33, Y 59.65, Z 10.0, A 0, B 90, C 0} C_DIS
LIN {X -9.58, Y 59.23, Z 10.0, A 0, B 90, C 0} C_DIS
LIN {X -10.14, Y 59.12, Z 10.0, A 0, B 90, C 0} C_DIS
LIN {X -13.35, Y 58.5, Z 10.0, A 0, B 90, C 0} C_DIS
LIN {X -13.91, Y 58.35, Z 10.0, A 0, B 90, C 0} C_DIS
LIN {X -17.07, Y 57.52, Z 10.0, A 0, B 90, C 0} C_DIS
LIN {X -17.62, Y 57.34, Z 10.0, A 0, B 90, C 0} C_DIS
LIN {X -20.72, Y 56.31, Z 10.0, A 0, B 90, C 0} C_DIS
LIN {X -21.26, Y 56.09, Z 10.0, A 0, B 90, C 0} C_DIS
LIN {X -24.29, Y 54.86, Z 10.0, A 0, B 90, C 0} C_DIS
LIN {X -24.81, Y 54.61, Z 10.0, A 0, B 90, C 0} C_DIS
LIN {X -27.75, Y 53.2, Z 10.0, A 0, B 90, C 0} C_DIS
LIN {X -28.25, Y 52.91, Z 10.0, A 0, B 90, C 0} C_DIS
LIN {X -31.1, Y 51.31, Z 10.0, A 0, B 90, C 0} C_DIS
LIN {X -31.59, Y 50.99, Z 10.0, A 0, B 90, C 0} C_DIS
LIN {X -34.33, Y 49.21, Z 10.0, A 0, B 90, C 0} C_DIS
LIN {X -34.79, Y 48.87, Z 10.0, A 0, B 90, C 0} C_DIS
LIN {X -37.41, Y 46.91, Z 10.0, A 0, B 90, C 0} C_DIS
LIN {X -37.85, Y 46.54, Z 10.0, A 0, B 90, C 0} C_DIS
LIN {X -40.34, Y 44.42, Z 10.0, A 0, B 90, C 0} C_DIS
LIN {X -40.75, Y 44.02, Z 10.0, A 0, B 90, C 0} C_DIS
LIN {X -43.1, Y 41.74, Z 10.0, A 0, B 90, C 0} C_DIS
LIN {X -43.49, Y 41.31, Z 10.0, A 0, B 90, C 0} C_DIS
LIN {X -45.69, Y 38.89, Z 10.0, A 0, B 90, C 0} C_DIS
LIN {X -46.05, Y 38.44, Z 10.0, A 0, B 90, C 0} C_DIS
LIN {X -48.08, Y 35.89, Z 10.0, A 0, B 90, C 0} C_DIS
LIN {X -48.41, Y 35.41, Z 10.0, A 0, B 90, C 0} C_DIS
LIN {X -50.29, Y 32.73, Z 10.0, A 0, B 90, C 0} C_DIS
LIN {X -50.58, Y 32.24, Z 10.0, A 0, B 90, C 0} C_DIS
LIN {X -52.28, Y 29.44, Z 10.0, A 0, B 90, C 0} C_DIS
LIN {X -52.55, Y 28.93, Z 10.0, A 0, B 90, C 0} C_DIS
LIN {X -54.06, Y 26.03, Z 10.0, A 0, B 90, C 0} C_DIS
LIN {X -54.29, Y 25.51, Z 10.0, A 0, B 90, C 0} C_DIS
LIN {X -55.62, Y 22.52, Z 10.0, A 0, B 90, C 0} C_DIS
LIN {X -55.81, Y 21.97, Z 10.0, A 0, B 90, C 0} C_DIS
LIN {X -56.94, Y 18.91, Z 10.0, A 0, B 90, C 0} C_DIS
LIN {X -57.11, Y 18.35, Z 10.0, A 0, B 90, C 0} C_DIS
LIN {X -58.04, Y 15.22, Z 10.0, A 0, B 90, C 0} C_DIS
LIN {X -58.17, Y 14.66, Z 10.0, A 0, B 90, C 0} C_DIS
LIN {X -58.89, Y 11.47, Z 10.0, A 0, B 90, C 0} C_DIS
LIN {X -58.99, Y 10.9, Z 10.0, A 0, B 90, C 0} C_DIS
LIN {X -59.51, Y 7.67, Z 10.0, A 0, B 90, C 0} C_DIS
LIN {X -59.56, Y 7.1, Z 10.0, A 0, B 90, C 0} C_DIS
LIN {X -59.88, Y 3.84, Z 10.0, A 0, B 90, C 0} C_DIS
LIN {X -59.9, Y 3.27, Z 10.0, A 0, B 90, C 0} C_DIS
LIN {X -60.0, Y -0.0, Z 10.0, A 0, B 90, C 0} C_DIS
LIN {X -59.98, Y -0.58, Z 10.0, A 0, B 90, C 0} C_DIS
LIN {X -59.88, Y -3.84, Z 10.0, A 0, B 90, C 0} C_DIS
LIN {X -59.82, Y -4.42, Z 10.0, A 0, B 90, C 0} C_DIS
LIN {X -59.51, Y -7.67, Z 10.0, A 0, B 90, C 0} C_DIS
LIN {X -59.42, Y -8.24, Z 10.0, A 0, B 90, C 0} C_DIS
LIN {X -58.89, Y -11.47, Z 10.0, A 0, B 90, C 0} C_DIS
LIN {X -58.77, Y -12.03, Z 10.0, A 0, B 90, C 0} C_DIS
LIN {X -58.04, Y -15.22, Z 10.0, A 0, B 90, C 0} C_DIS
LIN {X -57.87, Y -15.77, Z 10.0, A 0, B 90, C 0} C_DIS
LIN {X -56.94, Y -18.91, Z 10.0, A 0, B 90, C 0} C_DIS
LIN {X -56.74, Y -19.45, Z 10.0, A 0, B 90, C 0} C_DIS
LIN {X -55.62, Y -22.52, Z 10.0, A 0, B 90, C 0} C_DIS
LIN {X -55.38, Y -23.04, Z 10.0, A 0, B 90, C 0} C_DIS
LIN {X -54.06, Y -26.03, Z 10.0, A 0, B 90, C 0} C_DIS
LIN {X -53.79, Y -26.54, Z 10.0, A 0, B 90, C 0} C_DIS
LIN {X -52.28, Y -29.44, Z 10.0, A 0, B 90, C 0} C_DIS
LIN {X -51.98, Y -29.94, Z 10.0, A 0, B 90, C 0} C_DIS
LIN {X -50.29, Y -32.73, Z 10.0, A 0, B 90, C 0} C_DIS
LIN {X -49.96, Y -33.21, Z 10.0, A 0, B 90, C 0} C_DIS
LIN {X -48.08, Y -35.89, Z 10.0, A 0, B 90, C 0} C_DIS
LIN {X -47.73, Y -36.34, Z 10.0, A 0, B 90, C 0} C_DIS
LIN {X -45.69, Y -38.89, Z 10.0, A 0, B 90, C 0} C_DIS
LIN {X -45.3, Y -39.32, Z 10.0, A 0, B 90, C 0} C_DIS
LIN {X -43.1, Y -41.74, Z 10.0, A 0, B 90, C 0} C_DIS
LIN {X -42.69, Y -42.14, Z 10.0, A 0, B 90, C 0} C_DIS
LIN {X -40.34, Y -44.42, Z 10.0, A 0, B 90, C 0} C_DIS
LIN {X -39.9, Y -44.79, Z 10.0, A 0, B 90, C 0} C_DIS
LIN {X -37.41, Y -46.91, Z 10.0, A 0, B 90, C 0} C_DIS
LIN {X -36.95, Y -47.25, Z 10.0, A 0, B 90, C 0} C_DIS
LIN {X -34.33, Y -49.21, Z 10.0, A 0, B 90, C 0} C_DIS
LIN {X 30.43, Y 51.69, Z 15.0, A 0, B 90, C 0} C_DIS
LIN {X 30.43, Y 51.69, Z 12.5, A 0, B 90, C 0} C_DIS
LIN {X 27.75, Y 53.2, Z 12.5, A 0, B 90, C 0} C_DIS
LIN {X 27.06, Y 53.53, Z 12.5, A 0, B 90, C 0} C_DIS
LIN {X 24.29, Y 54.86, Z 12.5, A 0, B 90, C 0} C_DIS
LIN {X 23.57, Y 55.15, Z 12.5, A 0, B 90, C 0} C_DIS
LIN {X 20.72, Y 56.31, Z 12.5, A 0, B 90, C 0} C_DIS
LIN {X 19.99, Y 56.55, Z 12.5, A 0, B 90, C 0} C_DIS
LIN {X 17.07, Y 57.52, Z 12.5, A 0, B 90, C 0} C_DIS
LIN {X 16.33, Y 57.72, Z 12.5, A 0, B 90, C 0} C_DIS
LIN {X 13.35, Y 58.5, Z 12.5, A 0, B 90, C 0} C_DIS
LIN {X 12.6, Y 58.64, Z 12.5, A 0, B 90, C 0} C_DIS
LIN {X 9.58, Y 59.23, Z 12.5, A 0, B 90, C 0} C_DIS
LIN {X 8.81, Y 59.33, Z 12.5, A 0, B 90, C 0} C_DIS
LIN {X 5.76, Y 59.72, Z 12.5, A 0, B 90, C 0} C_DIS
LIN {X 4.99, Y 59.77, Z 12.5, A 0, B 90, C 0} C_DIS
LIN {X 1.92, Y 59.97, Z 12.5, A 0, B 90, C 0} C_DIS
LIN {X 1.15, Y 59.97, Z 12.5, A 0, B 90, C 0} C_DIS
LIN {X -1.92, Y 59.97, Z 12.5, A 0, B 90, C 0} C_DIS
LIN {X -2.69, Y 59.92, Z 12.5, A 0, B 90, C 0} C_DIS
LIN {X -5.76, Y 59.72, Z 12.5, A 0, B 90, C 0} C_DIS
LIN {X -6.52, Y 59.62, Z 12.5, A 0, B 90, C 0} C_DIS
LIN {X -9.58, Y 59.23, Z 12.5, A 0, B 90, C 0} C_DIS
LIN {X -10.33, Y 59.08, Z 12.5, A 0, B 90, C 0} C_DIS
LIN {X -13.35, Y 58.5, Z 12.5, A 0, B 90, C 0} C_DIS
LIN {X -14.1, Y 58.3, Z 12.5, A 0, B 90, C 0} C_DIS
LIN {X -17.07, Y 57.52, Z 12.5, A 0, B 90, C 0} C_DIS
LIN {X -17.8, Y 57.28, Z 12.5, A 0, B 90, C 0} C_DIS
LIN {X -20.72, Y 56.31, Z 12.5, A 0, B 90, C 0} C_DIS
LIN {X -21.43, Y 56.02, Z 12.5, A 0, B 90, C 0} C_DIS
LIN {X -24.29, Y 54.86, Z 12.5, A 0, B 90, C 0} C_DIS
LIN {X -24.98, Y 54.53, Z 12.5, A 0, B 90, C 0} C_DIS
LIN {X -27.75, Y 53.2, Z 12.5, A 0, B 90, C 0} C_DIS
LIN {X -28.42, Y 52.82, Z 12.5, A 0, B 90, C 0} C_DIS
LIN {X -31.1, Y 51.31, Z 12.5, A 0, B 90, C 0} C_DIS
LIN {X -31.75, Y 50.89, Z 12.5, A 0, B 90, C 0} C_DIS
LIN {X -34.33, Y 49.21, Z 12.5, A 0, B 90, C 0} C_DIS
LIN {X -34.94, Y 48.75, Z 12.5, A 0, B 90, C 0} C_DIS
LIN {X -37.41, Y 46.91, Z 12.5, A 0, B 90, C 0} C_DIS
LIN {X -38.0, Y 46.41, Z 12.5, A 0, B 90, C 0} C_DIS
LIN {X -40.34, Y 44.42, Z 12.5, A 0, B 90, C 0} C_DIS
LIN {X -40.89, Y 43.88, Z 12.5, A 0, B 90, C 0} C_DIS
LIN {X -43.1, Y 41.74, Z 12.5, A 0, B 90, C 0} C_DIS
LIN {X -43.62, Y 41.17, Z 12.5, A 0, B 90, C 0} C_DIS
LIN {X -45.69, Y 38.89, Z 12.5, A 0, B 90, C 0} C_DIS
LIN {X -46.17, Y 38.29, Z 12.5, A 0, B 90, C 0} C_DIS
LIN {X -48.08, Y 35.89, Z 12.5, A 0, B 90, C 0} C_DIS
LIN {X -48.52, Y 35.26, Z 12.5, A 0, B 90, C 0} C_DIS
LIN {X -50.29, Y 32.73, Z 12.5, A 0, B 90, C 0} C_DIS
LIN {X -50.68, Y 32.07, Z 12.5, A 0, B 90, C 0} C_DIS
LIN {X -52.28, Y 29.44, Z 12.5, A 0, B 90, C 0} C_DIS
LIN {X -52.63, Y 28.76, Z 12.5, A 0, B 90, C 0} C_DIS
LIN {X -54.06, Y 26.03, Z 12.5, A 0, B 90, C 0} C_DIS
LIN {X -54.37, Y 25.33, Z 12.5, A 0, B 90, C 0} C_DIS
LIN {X -55.62, Y 22.52, Z 12.5, A 0, B 90, C 0} C_DIS
LIN {X -55.88, Y 21.79, Z 12.5, A 0, B 90, C 0} C_DIS
LIN {X -56.94, Y 18.91, Z 12.5, A 0, B 90, C 0} C_DIS
LIN {X -57.16, Y 18.17, Z 12.5, A 0, B 90, C 0} C_DIS
LIN {X -58.04, Y 15.22, Z 12.5, A 0, B 90, C 0} C_DIS
LIN {X -58.21, Y 14.47, Z 12.5, A 0, B 90, C 0} C_DIS
LIN {X -58.89, Y 11.47, Z 12.5, A 0, B 90, C 0} C_DIS
LIN {X -59.02, Y 10.71, Z 12.5, A 0, B 90, C 0} C_DIS
LIN {X -59.51, Y 7.67, Z 12.5, A 0, B 90, C 0} C_DIS
LIN {X -59.58, Y 6.91, Z 12.5, A 0, B 90, C 0} C_DIS
LIN {X -59.88, Y 3.84, Z 12.5, A 0, B 90, C 0} C_DIS
LIN {X -59.9, Y 3.08, Z 12.5, A 0, B 90, C 0} C_DIS
LIN {X -60.0, Y -0.0, Z 12.5, A 0, B 90, C 0} C_DIS
LIN {X -59.98, Y -0.77, Z 12.5, A 0, B 90, C 0} C_DIS
LIN {X -59.88, Y -3.84, Z 12.5, A 0, B 90, C 0} C_DIS
LIN {X -59.8, Y -4.61, Z 12.5, A 0, B 90, C 0} C_DIS
LIN {X -59.51, Y -7.67, Z 12.5, A 0, B 90, C 0} C_DIS
LIN {X -59.38, Y -8.43, Z 12.5, A 0, B 90, C 0} C_DIS
LIN {X -58.89, Y -11.47, Z 12.5, A 0, B 90, C 0} C_DIS
LIN {X -58.72, Y -12.22, Z 12.5, A 0, B 90, C 0} C_DIS
LIN {X -58.04, Y -15.22, Z 12.5, A 0, B 90, C 0} C_DIS
LIN {X -57.82, Y -15.96, Z 12.5, A 0, B 90, C 0} C_DIS
LIN {X -56.94, Y -18.91, Z 12.5, A 0, B 90, C 0} C_DIS
LIN {X -56.68, Y -19.63, Z 12.5, A 0, B 90, C 0} C_DIS
LIN {X -55.62, Y -22.52, Z 12.5, A 0, B 90, C 0} C_DIS
LIN {X -55.3, Y -23.22, Z 12.5, A 0, B 90, C 0} C_DIS
LIN {X -54.06, Y -26.03, Z 12.5, A 0, B 90, C 0} C_DIS
LIN {X -53.7, Y -26.72, Z 12.5, A 0, B 90, C 0} C_DIS
LIN {X -52.28, Y -29.44, Z 12.5, A 0, B 90, C 0} C_DIS
LIN {X -51.88, Y -30.1, Z 12.5, A 0, B 90, C 0} C_DIS
LIN {X -50.29, Y -32.73, Z 12.5, A 0, B 90, C 0} C_DIS
LIN {X -49.85, Y -33.36, Z 12.5, A 0, B 90, C 0} C_DIS
LIN {X -48.08, Y -35.89, Z 12.5, A 0, B 90, C 0} C_DIS
LIN {X -47.61, Y -36.49, Z 12.5, A 0, B 90, C 0} C_DIS
LIN {X -45.69, Y -38.89, Z 12.5, A 0, B 90, C 0} C_DIS
LIN {X -45.17, Y -39.46, Z 12.5, A 0, B 90, C 0} C_DIS
LIN {X -43.1, Y -41.74, Z 12.5, A 0, B 90, C 0} C_DIS
LIN {X -42.55, Y -42.28, Z 12.5, A 0, B 90, C 0} C_DIS
LIN {X -40.34, Y -44.42, Z 12.5, A 0, B 90, C 0} C_DIS
LIN {X -39.75, Y -44.92, Z 12.5, A 0, B 90, C 0} C_DIS
LIN {X -37.41, Y -46.91, Z 12.5, A 0, B 90, C 0} C_DIS
LIN {X -36.79, Y -47.37, Z 12.5, A 0, B 90, C 0} C_DIS
LIN {X -34.33, Y -49.21, Z 12.5, A 0, B 90, C 0} C_DIS
LIN {X -33.68, Y -49.63, Z 12.5, A 0, B 90, C 0} C_DIS
LIN {X -31.1, Y -51.31, Z 12.5, A 0, B 90, C 0} C_DIS
LIN {X -30.43, Y -51.69, Z 12.5, A 0, B 90, C 0} C_DIS
LIN {X -27.75, Y -53.2, Z 12.5, A 0, B 90, C 0} C_DIS
LIN {X -27.06, Y -53.53, Z 12.5, A 0, B 90, C 0} C_DIS
LIN {X -24.29, Y -54.86, Z 12.5, A 0, B 90, C 0} C_DIS
LIN {X -23.57, Y -55.15, Z 12.5, A 0, B 90, C 0} C_DIS
LIN {X -20.72, Y -56.31, Z 12.5, A 0, B 90, C 0} C_DIS
LIN {X -19.99, Y -56.55, Z 12.5, A 0, B 90, C 0} C_DIS
LIN {X -17.07, Y -57.52, Z 12.5, A 0, B 90, C 0} C_DIS
LIN {X -16.33, Y -57.72, Z 12.5, A 0, B 90, C 0} C_DIS
LIN {X -13.35, Y -58.5, Z 12.5, A 0, B 90, C 0} C_DIS
LIN {X -12.6, Y -58.64, Z 12.5, A 0, B 90, C 0} C_DIS
LIN {X -9.58, Y -59.23, Z 12.5, A 0, B 90, C 0} C_DIS
LIN {X -8.81, Y -59.33, Z 12.5, A 0, B 90, C 0} C_DIS
LIN {X -5.76, Y -59.72, Z 12.5, A 0, B 90, C 0} C_DIS
LIN {X -4.99, Y -59.77, Z 12.5, A 0, B 90, C 0} C_DIS
LIN {X -1.92, Y -59.97, Z 12.5, A 0, B 90, C 0} C_DIS
LIN {X -1.15, Y -59.97, Z 12.5, A 0, B 90, C 0} C_DIS
LIN {X 1.92, Y -59.97, Z 12.5, A 0, B 90, C 0} C_DIS
LIN {X 2.69, Y -59.92, Z 12.5, A 0, B 90, C 0} C_DIS
LIN {X 5.76, Y -59.72, Z 12.5, A 0, B 90, C 0} C_DIS
LIN {X 6.52, Y -59.62, Z 12.5, A 0, B 90, C 0} C_DIS
LIN {X 9.58, Y -59.23, Z 12.5, A 0, B 90, C 0} C_DIS
LIN {X 10.33, Y -59.08, Z 12.5, A 0, B 90, C 0} C_DIS
LIN {X 13.35, Y -58.5, Z 12.5, A 0, B 90, C 0} C_DIS
LIN {X 14.1, Y -58.3, Z 12.5, A 0, B 90, C 0} C_DIS
LIN {X 17.07, Y -57.52, Z 12.5, A 0, B 90, C 0} C_DIS
LIN {X 17.8, Y -57.28, Z 12.5, A 0, B 90, C 0} C_DIS
LIN {X 20.72, Y -56.31, Z 12.5, A 0, B 90, C 0} C_DIS
LIN {X 21.43, Y -56.02, Z 12.5, A 0, B 90, C 0} C_DIS
LIN {X 24.29, Y -54.86, Z 12.5, A 0, B 90, C 0} C_DIS
LIN {X 24.98, Y -54.53, Z 12.5, A 0, B 90, C 0} C_DIS
LIN {X 27.75, Y -53.2, Z 12.5, A 0, B 90, C 0} C_DIS
LIN {X 28.42, Y -52.82, Z 12.5, A 0, B 90, C 0} C_DIS
LIN {X 31.1, Y -51.31, Z 12.5, A 0, B 90, C 0} C_DIS
LIN {X 31.75, Y -50.89, Z 12.5, A 0, B 90, C 0} C_DIS
LIN {X 34.33, Y -49.21, Z 12.5, A 0, B 90, C 0} C_DIS
LIN {X 34.94, Y -48.75, Z 12.5, A 0, B 90, C 0} C_DIS
LIN {X 37.41, Y -46.91, Z 12.5, A 0, B 90, C 0} C_DIS
LIN {X 38.0, Y -46.41, Z 12.5, A 0, B 90, C 0} C_DIS
LIN {X 40.34, Y -44.42, Z 12.5, A 0, B 90, C 0} C_DIS
LIN {X 40.89, Y -43.88, Z 12.5, A 0, B 90, C 0} C_DIS
LIN {X 43.1, Y -41.74, Z 12.5, A 0, B 90, C 0} C_DIS
LIN {X 43.62, Y -41.17, Z 12.5, A 0, B 90, C 0} C_DIS
LIN {X 45.69, Y -38.89, Z 12.5, A 0, B 90, C 0} C_DIS
LIN {X 46.17, Y -38.29, Z 12.5, A 0, B 90, C 0} C_DIS
LIN {X 48.08, Y -35.89, Z 12.5, A 0, B 90, C 0} C_DIS
LIN {X 48.52, Y -35.26, Z 12.5, A 0, B 90, C 0} C_DIS
LIN {X 50.29, Y -32.73, Z 12.5, A 0, B 90, C 0} C_DIS
LIN {X 50.68, Y -32.07, Z 12.5, A 0, B 90, C 0} C_DIS
LIN {X 52.28, Y -29.44, Z 12.5, A 0, B 90, C 0} C_DIS
LIN {X 52.63, Y -28.76, Z 12.5, A 0, B 90, C 0} C_DIS
LIN {X 54.06, Y -26.03, Z 12.5, A 0, B 90, C 0} C_DIS
LIN {X 54.37, Y -25.33, Z 12.5, A 0, B 90, C 0} C_DIS
LIN {X 55.62, Y -22.52, Z 12.5, A 0, B 90, C 0} C_DIS
LIN {X 55.88, Y -21.79, Z 12.5, A 0, B 90, C 0} C_DIS
LIN {X 56.94, Y -18.91, Z 12.5, A 0, B 90, C 0} C_DIS
LIN {X 57.16, Y -18.17, Z 12.5, A 0, B 90, C 0} C_DIS
LIN {X 58.04, Y -15.22, Z 12.5, A 0, B 90, C 0} C_DIS
LIN {X 58.21, Y -14.47, Z 12.5, A 0, B 90, C 0} C_DIS
LIN {X 58.89, Y -11.47, Z 12.5, A 0, B 90, C 0} C_DIS
LIN {X 59.02, Y -10.71, Z 12.5, A 0, B 90, C 0} C_DIS
LIN {X 59.51, Y -7.67, Z 12.5, A 0, B 90, C 0} C_DIS
LIN {X 59.58, Y -6.91, Z 12.5, A 0, B 90, C 0} C_DIS
LIN {X 59.88, Y -3.84, Z 12.5, A 0, B 90, C 0} C_DIS
LIN {X 59.9, Y -3.08, Z 12.5, A 0, B 90, C 0} C_DIS
LIN {X 60.0, Y -0.0, Z 12.5, A 0, B 90, C 0} C_DIS
LIN {X 59.98, Y 0.77, Z 12.5, A 0, B 90, C 0} C_DIS
LIN {X 59.88, Y 3.84, Z 12.5, A 0, B 90, C 0} C_DIS
LIN {X 59.8, Y 4.61, Z 12.5, A 0, B 90, C 0} C_DIS
LIN {X 59.51, Y 7.67, Z 12.5, A 0, B 90, C 0} C_DIS
LIN {X 59.38, Y 8.43, Z 12.5, A 0, B 90, C 0} C_DIS
LIN {X 58.89, Y 11.47, Z 12.5, A 0, B 90, C 0} C_DIS
LIN {X 58.72, Y 12.22, Z 12.5, A 0, B 90, C 0} C_DIS
LIN {X 58.04, Y 15.22, Z 12.5, A 0, B 90, C 0} C_DIS
LIN {X 57.82, Y 15.96, Z 12.5, A 0, B 90, C 0} C_DIS
LIN {X 56.94, Y 18.91, Z 12.5, A 0, B 90, C 0} C_DIS
LIN {X 56.68, Y 19.63, Z 12.5, A 0, B 90, C 0} C_DIS
LIN {X 55.62, Y 22.52, Z 12.5, A 0, B 90, C 0} C_DIS
LIN {X 55.3, Y 23.22, Z 12.5, A 0, B 90, C 0} C_DIS
LIN {X 54.06, Y 26.03, Z 12.5, A 0, B 90, C 0} C_DIS
LIN {X 53.7, Y 26.72, Z 12.5, A 0, B 90, C 0} C_DIS
LIN {X 52.28, Y 29.44, Z 12.5, A 0, B 90, C 0} C_DIS
LIN {X 51.88, Y 30.1, Z 12.5, A 0, B 90, C 0} C_DIS
LIN {X 50.29, Y 32.73, Z 12.5, A 0, B 90, C 0} C_DIS
LIN {X 49.85, Y 33.36, Z 12.5, A 0, B 90, C 0} C_DIS
LIN {X 48.08, Y 35.89, Z 12.5, A 0, B 90, C 0} C_DIS
LIN {X 47.61, Y 36.49, Z 12.5, A 0, B 90, C 0} C_DIS
LIN {X 45.69, Y 38.89, Z 12.5, A 0, B 90, C 0} C_DIS
LIN {X 45.17, Y 39.46, Z 12.5, A 0, B 90, C 0} C_DIS
LIN {X 43.1, Y 41.74, Z 12.5, A 0, B 90, C 0} C_DIS
LIN {X 42.55, Y 42.28, Z 12.5, A 0, B 90, C 0} C_DIS
LIN {X 40.34, Y 44.42, Z 12.5, A 0, B 90, C 0} C_DIS
LIN {X 39.75, Y 44.92, Z 12.5, A 0, B 90, C 0} C_DIS
LIN {X 37.41, Y 46.91, Z 12.5, A 0, B 90, C 0} C_DIS
LIN {X 36.79, Y 47.37, Z 12.5, A 0, B 90, C 0} C_DIS
LIN {X 34.33, Y 49.21, Z 12.5, A 0, B 90, C 0} C_DIS
LIN {X 33.68, Y 49.63, Z 12.5, A 0, B 90, C 0} C_DIS
LIN {X 31.1, Y 51.31, Z 12.5, A 0, B 90, C 0} C_DIS
LIN {X 30.43, Y 51.69, Z 12.5, A 0, B 90, C 0} C_DIS
LIN {X -35.1, Y 48.64, Z 17.5, A 0, B 90, C 0} C_DIS
LIN {X -35.1, Y 48.64, Z 15.0, A 0, B 90, C 0} C_DIS
LIN {X -37.41, Y 46.91, Z 15.0, A 0, B 90, C 0} C_DIS
LIN {X -38.14, Y 46.29, Z 15.0, A 0, B 90, C 0} C_DIS
LIN {X -40.34, Y 44.42, Z 15.0, A 0, B 90, C 0} C_DIS
LIN {X -41.03, Y 43.75, Z 15.0, A 0, B 90, C 0} C_DIS
LIN {X -43.1, Y 41.74, Z 15.0, A 0, B 90, C 0} C_DIS
LIN {X -43.75, Y 41.03, Z 15.0, A 0, B 90, C 0} C_DIS
LIN {X -45.69, Y 38.89, Z 15.0, A 0, B 90, C 0} C_DIS
LIN {X -46.29, Y 38.14, Z 15.0, A 0, B 90, C 0} C_DIS
LIN {X -48.08, Y 35.89, Z 15.0, A 0, B 90, C 0} C_DIS
LIN {X -48.63, Y 35.1, Z 15.0, A 0, B 90, C 0} C_DIS
LIN {X -50.29, Y 32.73, Z 15.0, A 0, B 90, C 0} C_DIS
LIN {X -50.78, Y 31.91, Z 15.0, A 0, B 90, C 0} C_DIS
LIN {X -52.28, Y 29.44, Z 15.0, A 0, B 90, C 0} C_DIS
LIN {X -52.72, Y 28.59, Z 15.0, A 0, B 90, C 0} C_DIS
LIN {X -54.06, Y 26.03, Z 15.0, A 0, B 90, C 0} C_DIS
LIN {X -54.45, Y 25.15, Z 15.0, A 0, B 90, C 0} C_DIS
LIN {X -55.62, Y 22.52, Z 15.0, A 0, B 90, C 0} C_DIS
LIN {X -55.95, Y 21.61, Z 15.0, A 0, B 90, C 0} C_DIS
LIN {X -56.94, Y 18.91, Z 15.0, A 0, B 90, C 0} C_DIS
LIN {X -57.22, Y 17.98, Z 15.0, A 0, B 90, C 0} C_DIS
LIN {X -58.04, Y 15.22, Z 15.0, A 0, B 90, C 0} C_DIS
LIN {X -58.25, Y 14.28, Z 15.0, A 0, B 90, C 0} C_DIS
LIN {X -58.89, Y 11.47, Z 15.0, A 0, B 90, C 0} C_DIS
LIN {X -59.05, Y 10.52, Z 15.0, A 0, B 90, C 0} C_DIS
LIN {X -59.51, Y 7.67, Z 15.0, A 0, B 90, C 0} C_DIS
LIN {X -59.6, Y 6.72, Z 15.0, A 0, B 90, C 0} C_DIS
LIN {X -59.88, Y 3.84, Z 15.0, A 0, B 90, C 0} C_DIS
LIN {X -59.91, Y 2.88, Z 15.0, A 0, B 90, C 0} C_DIS
LIN {X -60.0, Y -0.0, Z 15.0, A 0, B 90, C 0} C_DIS
LIN {X -59.97, Y -0.96, Z 15.0, A 0, B 90, C 0} C_DIS
LIN {X -59.88, Y -3.84, Z 15.0, A 0, B 90, C 0} C_DIS
LIN {X -59.78, Y -4.8, Z 15.0, A 0, B 90, C 0} C_DIS
LIN {X -59.51, Y -7.67, Z 15.0, A 0, B 90, C 0} C_DIS
LIN {X -59.35, Y -8.62, Z 15.0, A 0, B 90, C 0} C_DIS
LIN {X -58.89, Y -11.47, Z 15.0, A 0, B 90, C 0} C_DIS
LIN {X -58.68, Y -12.41, Z 15.0, A 0, B 90, C 0} C_DIS
LIN {X -58.04, Y -15.22, Z 15.0, A 0, B 90, C 0} C_DIS
LIN {X -57.76, Y -16.14, Z 15.0, A 0, B 90, C 0} C_DIS
LIN {X -56.94, Y -18.91, Z 15.0, A 0, B 90, C 0} C_DIS
LIN {X -56.61, Y -19.81, Z 15.0, A 0, B 90, C 0} C_DIS
LIN {X -55.62, Y -22.52, Z 15.0, A 0, B 90, C 0} C_DIS
LIN {X -55.23, Y -23.4, Z 15.0, A 0, B 90, C 0} C_DIS
LIN {X -54.06, Y -26.03, Z 15.0, A 0, B 90, C 0} C_DIS
LIN {X -53.61, Y -26.89, Z 15.0, A 0, B 90, C 0} C_DIS
LIN {X -52.28, Y -29.44, Z 15.0, A 0, B 90, C 0} C_DIS
LIN {X -51.78, Y -30.27, Z 15.0, A 0, B 90, C 0} C_DIS
LIN {X -50.29, Y -32.73, Z 15.0, A 0, B 90, C 0} C_DIS
LIN {X -49.74, Y -33.52, Z 15.0, A 0, B 90, C 0} C_DIS
LIN {X -48.08, Y -35.89, Z 15.0, A 0, B 90, C 0} C_DIS
LIN {X -47.49, Y -36.64, Z 15.0, A 0, B 90, C 0} C_DIS
LIN {X -45.69, Y -38.89, Z 15.0, A 0, B 90, C 0} C_DIS
LIN {X -45.04, Y -39.61, Z 15.0, A 0, B 90, C 0} C_DIS
LIN {X -43.1, Y -41.74, Z 15.0, A 0, B 90, C 0} C_DIS
LIN {X -42.41, Y -42.41, Z 15.0, A 0, B 90, C 0} C_DIS
LIN {X -40.34, Y -44.42, Z 15.0, A 0, B 90, C 0} C_DIS
LIN {X -39.61, Y -45.04, Z 15.0, A 0, B 90, C 0} C_DIS
LIN {X -37.41, Y -46.91, Z 15.0, A 0, B 90, C 0} C_DIS
LIN {X -36.64, Y -47.49, Z 15.0, A 0, B 90, C 0} C_DIS
LIN {X -34.33, Y -49.21, Z 15.0, A 0, B 90, C 0} C_DIS
LIN {X -33.52, Y -49.73, Z 15.0, A 0, B 90, C 0} C_DIS
LIN {X -31.1, Y -51.31, Z 15.0, A 0, B 90, C 0} C_DIS
LIN {X -30.27, Y -51.78, Z 15.0, A 0, B 90, C 0} C_DIS
LIN {X -27.75, Y -53.2, Z 15.0, A 0, B 90, C 0} C_DIS
LIN {X -26.89, Y -53.61, Z 15.0, A 0, B 90, C 0} C_DIS
LIN {X -24.29, Y -54.86, Z 15.0, A 0, B 90, C 0} C_DIS
LIN {X -23.4, Y -55.23, Z 15.0, A 0, B 90, C 0} C_DIS
LIN {X -20.72, Y -56.31, Z 15.0, A 0, B 90, C 0} C_DIS
LIN {X -19.81, Y -56.61, Z 15.0, A 0, B 90, C 0} C_DIS
LIN {X -17.07, Y -57.52, Z 15.0, A 0, B 90, C 0} C_DIS
LIN {X -16.14, Y -57.76, Z 15.0, A 0, B 90, C 0} C_DIS
LIN {X -13.35, Y -58.5, Z 15.0, A 0, B 90, C 0} C_DIS
LIN {X -12.41, Y -58.68, Z 15.0, A 0, B 90, C 0} C_DIS
LIN {X -9.58, Y -59.23, Z 15.0, A 0, B 90, C 0} C_DIS
LIN {X -8.62, Y -59.35, Z 15.0, A 0, B 90, C 0} C_DIS
LIN {X -5.76, Y -59.72, Z 15.0, A 0, B 90, C 0} C_DIS
LIN {X -4.8, Y -59.78, Z 15.0, A 0, B 90, C 0} C_DIS
LIN {X -1.92, Y -59.97, Z 15.0, A 0, B 90, C 0} C_DIS
LIN {X -0.96, Y -59.97, Z 15.0, A 0, B 90, C 0} C_DIS
LIN {X 1.92, Y -59.97, Z 15.0, A 0, B 90, C 0} C_DIS
LIN {X 2.88, Y -59.91, Z 15.0, A 0, B 90, C 0} C_DIS
LIN {X 5.76, Y -59.72, Z 15.0, A 0, B 90, C 0} C_DIS
LIN {X 6.72, Y -59.6, Z 15.0, A 0, B 90, C 0} C_DIS
LIN {X 9.58, Y -59.23, Z 15.0, A 0, B 90, C 0} C_DIS
LIN {X 10.52, Y -59.05, Z 15.0, A 0, B 90, C 0} C_DIS
LIN {X 13.35, Y -58.5, Z 15.0, A 0, B 90, C 0} C_DIS
LIN {X 14.28, Y -58.25, Z 15.0, A 0, B 90, C 0} C_DIS
LIN {X 17.07, Y -57.52, Z 15.0, A 0, B 90, C 0} C_DIS
LIN {X 17.98, Y -57.22, Z 15.0, A 0, B 90, C 0} C_DIS
LIN {X 20.72, Y -56.31, Z 15.0, A 0, B 90, C 0} C_DIS
LIN {X 21.61, Y -55.95, Z 15.0, A 0, B 90, C 0} C_DIS
LIN {X 24.29, Y -54.86, Z 15.0, A 0, B 90, C 0} C_DIS
LIN {X 25.15, Y -54.45, Z 15.0, A 0, B 90, C 0} C_DIS
LIN {X 27.75, Y -53.2, Z 15.0, A 0, B 90, C 0} C_DIS
LIN {X 28.59, Y -52.72, Z 15.0, A 0, B 90, C 0} C_DIS
LIN {X 31.1, Y -51.31, Z 15.0, A 0, B 90, C 0} C_DIS
LIN {X 31.91, Y -50.78, Z 15.0, A 0, B 90, C 0} C_DIS
LIN {X 34.33, Y -49.21, Z 15.0, A 0, B 90, C 0} C_DIS
LIN {X 35.1, Y -48.64, Z 15.0, A 0, B 90, C 0} C_DIS
LIN {X 37.41, Y -46.91, Z 15.0, A 0, B 90, C 0} C_DIS
LIN {X 38.14, Y -46.29, Z 15.0, A 0, B 90, C 0} C_DIS
LIN {X 40.34, Y -44.42, Z 15.0, A 0, B 90, C 0} C_DIS
LIN {X 41.03, Y -43.75, Z 15.0, A 0, B 90, C 0} C_DIS
LIN {X 43.1, Y -41.74, Z 15.0, A 0, B 90, C 0} C_DIS
LIN {X 43.75, Y -41.03, Z 15.0, A 0, B 90, C 0} C_DIS
LIN {X 45.69, Y -38.89, Z 15.0, A 0, B 90, C 0} C_DIS
LIN {X 46.29, Y -38.14, Z 15.0, A 0, B 90, C 0} C_DIS
LIN {X 48.08, Y -35.89, Z 15.0, A 0, B 90, C 0} C_DIS
LIN {X 48.63, Y -35.1, Z 15.0, A 0, B 90, C 0} C_DIS
LIN {X 50.29, Y -32.73, Z 15.0, A 0, B 90, C 0} C_DIS
LIN {X 50.78, Y -31.91, Z 15.0, A 0, B 90, C 0} C_DIS
LIN {X 52.28, Y -29.44, Z 15.0, A 0, B 90, C 0} C_DIS
LIN {X 52.72, Y -28.59, Z 15.0, A 0, B 90, C 0} C_DIS
LIN {X 54.06, Y -26.03, Z 15.0, A 0, B 90, C 0} C_DIS
LIN {X 54.45, Y -25.15, Z 15.0, A 0, B 90, C 0} C_DIS
LIN {X 55.62, Y -22.52, Z 15.0, A 0, B 90, C 0} C_DIS
LIN {X 55.95, Y -21.61, Z 15.0, A 0, B 90, C 0} C_DIS
LIN {X 56.94, Y -18.91, Z 15.0, A 0, B 90, C 0} C_DIS
LIN {X 57.22, Y -17.98, Z 15.0, A 0, B 90, C 0} C_DIS
LIN {X 58.04, Y -15.22, Z 15.0, A 0, B 90, C 0} C_DIS
LIN {X 58.25, Y -14.28, Z 15.0, A 0, B 90, C 0} C_DIS
LIN {X 58.89, Y -11.47, Z 15.0, A 0, B 90, C 0} C_DIS
LIN {X 59.05, Y -10.52, Z 15.0, A 0, B 90, C 0} C_DIS
LIN {X 59.51, Y -7.67, Z 15.0, A 0, B 90, C 0} C_DIS
LIN {X 59.6, Y -6.72, Z 15.0, A 0, B 90, C 0} C_DIS
LIN {X 59.88, Y -3.84, Z 15.0, A 0, B 90, C 0} C_DIS
LIN {X 59.91, Y -2.88, Z 15.0, A 0, B 90, C 0} C_DIS
LIN {X 60.0, Y 0.0, Z 15.0, A 0, B 90, C 0} C_DIS
LIN {X 59.97, Y 0.96, Z 15.0, A 0, B 90, C 0} C_DIS
LIN {X 59.88, Y 3.84, Z 15.0, A 0, B 90, C 0} C_DIS
LIN {X 59.78, Y 4.8, Z 15.0, A 0, B 90, C 0} C_DIS
LIN {X 59.51, Y 7.67, Z 15.0, A 0, B 90, C 0} C_DIS
LIN {X 59.35, Y 8.62, Z 15.0, A 0, B 90, C 0} C_DIS
LIN {X 58.89, Y 11.47, Z 15.0, A 0, B 90, C 0} C_DIS
LIN {X 58.68, Y 12.41, Z 15.0, A 0, B 90, C 0} C_DIS
LIN {X 58.04, Y 15.22, Z 15.0, A 0, B 90, C 0} C_DIS
LIN {X 57.76, Y 16.14, Z 15.0, A 0, B 90, C 0} C_DIS
LIN {X 56.94, Y 18.91, Z 15.0, A 0, B 90, C 0} C_DIS
LIN {X 56.61, Y 19.81, Z 15.0, A 0, B 90, C 0} C_DIS
LIN {X 55.62, Y 22.52, Z 15.0, A 0, B 90, C 0} C_DIS
LIN {X 55.23, Y 23.4, Z 15.0, A 0, B 90, C 0} C_DIS
LIN {X 54.06, Y 26.03, Z 15.0, A 0, B 90, C 0} C_DIS
LIN {X 53.61, Y 26.89, Z 15.0, A 0, B 90, C 0} C_DIS
LIN {X 52.28, Y 29.44, Z 15.0, A 0, B 90, C 0} C_DIS
LIN {X 51.78, Y 30.27, Z 15.0, A 0, B 90, C 0} C_DIS
LIN {X 50.29, Y 32.73, Z 15.0, A 0, B 90, C 0} C_DIS
LIN {X 49.74, Y 33.52, Z 15.0, A 0, B 90, C 0} C_DIS
LIN {X 48.08, Y 35.89, Z 15.0, A 0, B 90, C 0} C_DIS
LIN {X 47.49, Y 36.64, Z 15.0, A 0, B 90, C 0} C_DIS
LIN {X 45.69, Y 38.89, Z 15.0, A 0, B 90, C 0} C_DIS
LIN {X 45.04, Y 39.61, Z 15.0, A 0, B 90, C 0} C_DIS
LIN {X 43.1, Y 41.74, Z 15.0, A 0, B 90, C 0} C_DIS
LIN {X 42.41, Y 42.41, Z 15.0, A 0, B 90, C 0} C_DIS
LIN {X 40.34, Y 44.42, Z 15.0, A 0, B 90, C 0} C_DIS
LIN {X 39.61, Y 45.04, Z 15.0, A 0, B 90, C 0} C_DIS
LIN {X 37.41, Y 46.91, Z 15.0, A 0, B 90, C 0} C_DIS
LIN {X 36.64, Y 47.49, Z 15.0, A 0, B 90, C 0} C_DIS
LIN {X 34.33, Y 49.21, Z 15.0, A 0, B 90, C 0} C_DIS
LIN {X 33.52, Y 49.73, Z 15.0, A 0, B 90, C 0} C_DIS
LIN {X 31.1, Y 51.31, Z 15.0, A 0, B 90, C 0} C_DIS
LIN {X 30.27, Y 51.78, Z 15.0, A 0, B 90, C 0} C_DIS
LIN {X 27.75, Y 53.2, Z 15.0, A 0, B 90, C 0} C_DIS
LIN {X 26.89, Y 53.61, Z 15.0, A 0, B 90, C 0} C_DIS
LIN {X 24.29, Y 54.86, Z 15.0, A 0, B 90, C 0} C_DIS
LIN {X 23.4, Y 55.23, Z 15.0, A 0, B 90, C 0} C_DIS
LIN {X 20.72, Y 56.31, Z 15.0, A 0, B 90, C 0} C_DIS
LIN {X 19.81, Y 56.61, Z 15.0, A 0, B 90, C 0} C_DIS
LIN {X 17.07, Y 57.52, Z 15.0, A 0, B 90, C 0} C_DIS
LIN {X 16.14, Y 57.76, Z 15.0, A 0, B 90, C 0} C_DIS
LIN {X 13.35, Y 58.5, Z 15.0, A 0, B 90, C 0} C_DIS
LIN {X 12.41, Y 58.68, Z 15.0, A 0, B 90, C 0} C_DIS
LIN {X 9.58, Y 59.23, Z 15.0, A 0, B 90, C 0} C_DIS
LIN {X 8.62, Y 59.35, Z 15.0, A 0, B 90, C 0} C_DIS
LIN {X 5.76, Y 59.72, Z 15.0, A 0, B 90, C 0} C_DIS
LIN {X 4.8, Y 59.78, Z 15.0, A 0, B 90, C 0} C_DIS
LIN {X 1.92, Y 59.97, Z 15.0, A 0, B 90, C 0} C_DIS
LIN {X 0.96, Y 59.97, Z 15.0, A 0, B 90, C 0} C_DIS
LIN {X -1.92, Y 59.97, Z 15.0, A 0, B 90, C 0} C_DIS
LIN {X -2.88, Y 59.91, Z 15.0, A 0, B 90, C 0} C_DIS
LIN {X -5.76, Y 59.72, Z 15.0, A 0, B 90, C 0} C_DIS
LIN {X -6.72, Y 59.6, Z 15.0, A 0, B 90, C 0} C_DIS
LIN {X -9.58, Y 59.23, Z 15.0, A 0, B 90, C 0} C_DIS
LIN {X -10.52, Y 59.05, Z 15.0, A 0, B 90, C 0} C_DIS
LIN {X -13.35, Y 58.5, Z 15.0, A 0, B 90, C 0} C_DIS
LIN {X -14.28, Y 58.25, Z 15.0, A 0, B 90, C 0} C_DIS
LIN {X -17.07, Y 57.52, Z 15.0, A 0, B 90, C 0} C_DIS
LIN {X -17.98, Y 57.22, Z 15.0, A 0, B 90, C 0} C_DIS
LIN {X -20.72, Y 56.31, Z 15.0, A 0, B 90, C 0} C_DIS
LIN {X -21.61, Y 55.95, Z 15.0, A 0, B 90, C 0} C_DIS
LIN {X -24.29, Y 54.86, Z 15.0, A 0, B 90, C 0} C_DIS
LIN {X -25.15, Y 54.45, Z 15.0, A 0, B 90, C 0} C_DIS
LIN {X -27.75, Y 53.2, Z 15.0, A 0, B 90, C 0} C_DIS
LIN {X -28.59, Y 52.72, Z 15.0, A 0, B 90, C 0} C_DIS
LIN {X -31.1, Y 51.31, Z 15.0, A 0, B 90, C 0} C_DIS
LIN {X -31.91, Y 50.78, Z 15.0, A 0, B 90, C 0} C_DIS
LIN {X -34.33, Y 49.21, Z 15.0, A 0, B 90, C 0} C_DIS
LIN {X -35.1, Y 48.64, Z 15.0, A 0, B 90, C 0} C_DIS
LIN {X 48.74, Y -34.94, Z 20.0, A 0, B 90, C 0} C_DIS
LIN {X 48.74, Y -34.94, Z 17.5, A 0, B 90, C 0} C_DIS
LIN {X 50.29, Y -32.73, Z 17.5, A 0, B 90, C 0} C_DIS
LIN {X 50.88, Y -31.75, Z 17.5, A 0, B 90, C 0} C_DIS
LIN {X 52.28, Y -29.44, Z 17.5, A 0, B 90, C 0} C_DIS
LIN {X 52.81, Y -28.42, Z 17.5, A 0, B 90, C 0} C_DIS
LIN {X 54.06, Y -26.03, Z 17.5, A 0, B 90, C 0} C_DIS
LIN {X 54.53, Y -24.98, Z 17.5, A 0, B 90, C 0} C_DIS
LIN {X 55.62, Y -22.52, Z 17.5, A 0, B 90, C 0} C_DIS
LIN {X 56.01, Y -21.43, Z 17.5, A 0, B 90, C 0} C_DIS
LIN {X 56.94, Y -18.91, Z 17.5, A 0, B 90, C 0} C_DIS
LIN {X 57.27, Y -17.8, Z 17.5, A 0, B 90, C 0} C_DIS
LIN {X 58.04, Y -15.22, Z 17.5, A 0, B 90, C 0} C_DIS
LIN {X 58.29, Y -14.09, Z 17.5, A 0, B 90, C 0} C_DIS
LIN {X 58.89, Y -11.47, Z 17.5, A 0, B 90, C 0} C_DIS
LIN {X 59.08, Y -10.33, Z 17.5, A 0, B 90, C 0} C_DIS
LIN {X 59.51, Y -7.67, Z 17.5, A 0, B 90, C 0} C_DIS
LIN {X 59.62, Y -6.52, Z 17.5, A 0, B 90, C 0} C_DIS
LIN {X 59.88, Y -3.84, Z 17.5, A 0, B 90, C 0} C_DIS
LIN {X 59.91, Y -2.69, Z 17.5, A 0, B 90, C 0} C_DIS
LIN {X 60.0, Y -0.0, Z 17.5, A 0, B 90, C 0} C_DIS
LIN {X 59.96, Y 1.15, Z 17.5, A 0, B 90, C 0} C_DIS
LIN {X 59.88, Y 3.84, Z 17.5, A 0, B 90, C 0} C_DIS
LIN {X 59.77, Y 4.99, Z 17.5, A 0, B 90, C 0} C_DIS
LIN {X 59.51, Y 7.67, Z 17.5, A 0, B 90, C 0} C_DIS
LIN {X 59.32, Y 8.81, Z 17.5, A 0, B 90, C 0} C_DIS
LIN {X 58.89, Y 11.47, Z 17.5, A 0, B 90, C 0} C_DIS
LIN {X 58.64, Y 12.59, Z 17.5, A 0, B 90, C 0} C_DIS
LIN {X 58.04, Y 15.22, Z 17.5, A 0, B 90, C 0} C_DIS
LIN {X 57.71, Y 16.33, Z 17.5, A 0, B 90, C 0} C_DIS
LIN {X 56.94, Y 18.91, Z 17.5, A 0, B 90, C 0} C_DIS
LIN {X 56.54, Y 19.99, Z 17.5, A 0, B 90, C 0} C_DIS
LIN {X 55.62, Y 22.52, Z 17.5, A 0, B 90, C 0} C_DIS
LIN {X 55.15, Y 23.57, Z 17.5, A 0, B 90, C 0} C_DIS
LIN {X 54.06, Y 26.03, Z 17.5, A 0, B 90, C 0} C_DIS
LIN {X 53.52, Y 27.06, Z 17.5, A 0, B 90, C 0} C_DIS
LIN {X 52.28, Y 29.44, Z 17.5, A 0, B 90, C 0} C_DIS
LIN {X 51.68, Y 30.43, Z 17.5, A 0, B 90, C 0} C_DIS
LIN {X 50.29, Y 32.73, Z 17.5, A 0, B 90, C 0} C_DIS
LIN {X 49.63, Y 33.68, Z 17.5, A 0, B 90, C 0} C_DIS
LIN {X 48.08, Y 35.89, Z 17.5, A 0, B 90, C 0} C_DIS
LIN {X 47.37, Y 36.79, Z 17.5, A 0, B 90, C 0} C_DIS
LIN {X 45.69, Y 38.89, Z 17.5, A 0, B 90, C 0} C_DIS
LIN {X 44.91, Y 39.75, Z 17.5, A 0, B 90, C 0} C_DIS
LIN {X 43.1, Y 41.74, Z 17.5, A 0, B 90, C 0} C_DIS
LIN {X 42.27, Y 42.54, Z 17.5, A 0, B 90, C 0} C_DIS
LIN {X 40.34, Y 44.42, Z 17.5, A 0, B 90, C 0} C_DIS
LIN {X 39.46, Y 45.16, Z 17.5, A 0, B 90, C 0} C_DIS
LIN {X 37.41, Y 46.91, Z 17.5, A 0, B 90, C 0} C_DIS
LIN {X 36.48, Y 47.6, Z 17.5, A 0, B 90, C 0} C_DIS
LIN {X 34.33, Y 49.21, Z 17.5, A 0, B 90, C 0} C_DIS
LIN {X 33.36, Y 49.84, Z 17.5, A 0, B 90, C 0} C_DIS
LIN {X 31.1, Y 51.31, Z 17.5, A 0, B 90, C 0} C_DIS
LIN {X 30.1, Y 51.87, Z 17.5, A 0, B 90, C 0} C_DIS
LIN {X 27.75, Y 53.2, Z 17.5, A 0, B 90, C 0} C_DIS
LIN {X 26.71, Y 53.7, Z 17.5, A 0, B 90, C 0} C_DIS
LIN {X 24.29, Y 54.86, Z 17.5, A 0, B 90, C 0} C_DIS
LIN {X 23.22, Y 55.3, Z 17.5, A 0, B 90, C 0} C_DIS
LIN {X 20.72, Y 56.31, Z 17.5, A 0, B 90, C 0} C_DIS
LIN {X 19.63, Y 56.67, Z 17.5, A 0, B 90, C 0} C_DIS
LIN {X 17.07, Y 57.52, Z 17.5, A 0, B 90, C 0} C_DIS
LIN {X 15.96, Y 57.81, Z 17.5, A 0, B 90, C 0} C_DIS
LIN {X 13.35, Y 58.5, Z 17.5, A 0, B 90, C 0} C_DIS
LIN {X 12.22, Y 58.72, Z 17.5, A 0, B 90, C 0} C_DIS
LIN {X 9.58, Y 59.23, Z 17.5, A 0, B 90, C 0} C_DIS
LIN {X 8.43, Y 59.38, Z 17.5, A 0, B 90, C 0} C_DIS
LIN {X 5.76, Y 59.72, Z 17.5, A 0, B 90, C 0} C_DIS
LIN {X 4.61, Y 59.8, Z 17.5, A 0, B 90, C 0} C_DIS
LIN {X 1.92, Y 59.97, Z 17.5, A 0, B 90, C 0} C_DIS
LIN {X 0.77, Y 59.97, Z 17.5, A 0, B 90, C 0} C_DIS
LIN {X -1.92, Y 59.97, Z 17.5, A 0, B 90, C 0} C_DIS
LIN {X -3.07, Y 59.9, Z 17.5, A 0, B 90, C 0} C_DIS
LIN {X -5.76, Y 59.72, Z 17.5, A 0, B 90, C 0} C_DIS
LIN {X -6.91, Y 59.58, Z 17.5, A 0, B 90, C 0} C_DIS
LIN {X -9.58, Y 59.23, Z 17.5, A 0, B 90, C 0} C_DIS
LIN {X -10.71, Y 59.01, Z 17.5, A 0, B 90, C 0} C_DIS
LIN {X -13.35, Y 58.5, Z 17.5, A 0, B 90, C 0} C_DIS
LIN {X -14.47, Y 58.2, Z 17.5, A 0, B 90, C 0} C_DIS
LIN {X -17.07, Y 57.52, Z 17.5, A 0, B 90, C 0} C_DIS
LIN {X -18.17, Y 57.16, Z 17.5, A 0, B 90, C 0} C_DIS
LIN {X -20.72, Y 56.31, Z 17.5, A 0, B 90, C 0} C_DIS
LIN {X -21.79, Y 55.88, Z 17.5, A 0, B 90, C 0} C_DIS
LIN {X -24.29, Y 54.86, Z 17.5, A 0, B 90, C 0} C_DIS
LIN {X -25.33, Y 54.36, Z 17.5, A 0, B 90, C 0} C_DIS
LIN {X -27.75, Y 53.2, Z 17.5, A 0, B 90, C 0} C_DIS
LIN {X -28.76, Y 52.63, Z 17.5, A 0, B 90, C 0} C_DIS
LIN {X -31.1, Y 51.31, Z 17.5, A 0, B 90, C 0} C_DIS
LIN {X -32.07, Y 50.68, Z 17.5, A 0, B 90, C 0} C_DIS
LIN {X -34.33, Y 49.21, Z 17.5, A 0, B 90, C 0} C_DIS
LIN {X -35.25, Y 48.52, Z 17.5, A 0, B 90, C 0} C_DIS
LIN {X -37.41, Y 46.91, Z 17.5, A 0, B 90, C 0} C_DIS
LIN {X -38.29, Y 46.16, Z 17.5, A 0, B 90, C 0} C_DIS
LIN {X -40.34, Y 44.42, Z 17.5, A 0, B 90, C 0} C_DIS
LIN {X -41.17, Y 43.61, Z 17.5, A 0, B 90, C 0} C_DIS
LIN {X -43.1, Y 41.74, Z 17.5, A 0, B 90, C 0} C_DIS
LIN {X -43.88, Y 40.89, Z 17.5, A 0, B 90, C 0} C_DIS
LIN {X -45.69, Y 38.89, Z 17.5, A 0, B 90, C 0} C_DIS
LIN {X -46.41, Y 37.99, Z 17.5, A 0, B 90, C 0} C_DIS
LIN {X -48.08, Y 35.89, Z 17.5, A 0, B 90, C 0} C_DIS
LIN {X -48.74, Y 34.94, Z 17.5, A 0, B 90, C 0} C_DIS
LIN {X -50.29, Y 32.73, Z 17.5, A 0, B 90, C 0} C_DIS
LIN {X -50.88, Y 31.75, Z 17.5, A 0, B 90, C 0} C_DIS
LIN {X -52.28, Y 29.44, Z 17.5, A 0, B 90, C 0} C_DIS
LIN {X -52.81, Y 28.42, Z 17.5, A 0, B 90, C 0} C_DIS
LIN {X -54.06, Y 26.03, Z 17.5, A 0, B 90, C 0} C_DIS
LIN {X -54.53, Y 24.98, Z 17.5, A 0, B 90, C 0} C_DIS
LIN {X -55.62, Y 22.52, Z 17.5, A 0, B 90, C 0} C_DIS
LIN {X -56.01, Y 21.43, Z 17.5, A 0, B 90, C 0} C_DIS
LIN {X -56.94, Y 18.91, Z 17.5, A 0, B 90, C 0} C_DIS
LIN {X -57.27, Y 17.8, Z 17.5, A 0, B 90, C 0} C_DIS
LIN {X -58.04, Y 15.22, Z 17.5, A 0, B 90, C 0} C_DIS
LIN {X -58.29, Y 14.09, Z 17.5, A 0, B 90, C 0} C_DIS
LIN {X -58.89, Y 11.47, Z 17.5, A 0, B 90, C 0} C_DIS
LIN {X -59.08, Y 10.33, Z 17.5, A 0, B 90, C 0} C_DIS
LIN {X -59.51, Y 7.67, Z 17.5, A 0, B 90, C 0} C_DIS
LIN {X -59.62, Y 6.52, Z 17.5, A 0, B 90, C 0} C_DIS
LIN {X -59.88, Y 3.84, Z 17.5, A 0, B 90, C 0} C_DIS
LIN {X -59.91, Y 2.69, Z 17.5, A 0, B 90, C 0} C_DIS
LIN {X -60.0, Y -0.0, Z 17.5, A 0, B 90, C 0} C_DIS
LIN {X -59.96, Y -1.15, Z 17.5, A 0, B 90, C 0} C_DIS
LIN {X -59.88, Y -3.84, Z 17.5, A 0, B 90, C 0} C_DIS
LIN {X -59.77, Y -4.99, Z 17.5, A 0, B 90, C 0} C_DIS
LIN {X -59.51, Y -7.67, Z 17.5, A 0, B 90, C 0} C_DIS
LIN {X -59.32, Y -8.81, Z 17.5, A 0, B 90, C 0} C_DIS
LIN {X -58.89, Y -11.47, Z 17.5, A 0, B 90, C 0} C_DIS
LIN {X -58.64, Y -12.59, Z 17.5, A 0, B 90, C 0} C_DIS
LIN {X -58.04, Y -15.22, Z 17.5, A 0, B 90, C 0} C_DIS
LIN {X -57.71, Y -16.33, Z 17.5, A 0, B 90, C 0} C_DIS
LIN {X -56.94, Y -18.91, Z 17.5, A 0, B 90, C 0} C_DIS
LIN {X -56.54, Y -19.99, Z 17.5, A 0, B 90, C 0} C_DIS
LIN {X -55.62, Y -22.52, Z 17.5, A 0, B 90, C 0} C_DIS
LIN {X -55.15, Y -23.57, Z 17.5, A 0, B 90, C 0} C_DIS
LIN {X -54.06, Y -26.03, Z 17.5, A 0, B 90, C 0} C_DIS
LIN {X -53.52, Y -27.06, Z 17.5, A 0, B 90, C 0} C_DIS
LIN {X -52.28, Y -29.44, Z 17.5, A 0, B 90, C 0} C_DIS
LIN {X -51.68, Y -30.43, Z 17.5, A 0, B 90, C 0} C_DIS
LIN {X -50.29, Y -32.73, Z 17.5, A 0, B 90, C 0} C_DIS
LIN {X -49.63, Y -33.68, Z 17.5, A 0, B 90, C 0} C_DIS
LIN {X -48.08, Y -35.89, Z 17.5, A 0, B 90, C 0} C_DIS
LIN {X -47.37, Y -36.79, Z 17.5, A 0, B 90, C 0} C_DIS
LIN {X -45.69, Y -38.89, Z 17.5, A 0, B 90, C 0} C_DIS
LIN {X -44.91, Y -39.75, Z 17.5, A 0, B 90, C 0} C_DIS
LIN {X -43.1, Y -41.74, Z 17.5, A 0, B 90, C 0} C_DIS
LIN {X -42.27, Y -42.54, Z 17.5, A 0, B 90, C 0} C_DIS
LIN {X -40.34, Y -44.42, Z 17.5, A 0, B 90, C 0} C_DIS
LIN {X -39.46, Y -45.16, Z 17.5, A 0, B 90, C 0} C_DIS
LIN {X -37.41, Y -46.91, Z 17.5, A 0, B 90, C 0} C_DIS
LIN {X -36.48, Y -47.6, Z 17.5, A 0, B 90, C 0} C_DIS
LIN {X -34.33, Y -49.21, Z 17.5, A 0, B 90, C 0} C_DIS
LIN {X -33.36, Y -49.84, Z 17.5, A 0, B 90, C 0} C_DIS
LIN {X -31.1, Y -51.31, Z 17.5, A 0, B 90, C 0} C_DIS
LIN {X -30.1, Y -51.87, Z 17.5, A 0, B 90, C 0} C_DIS
LIN {X -27.75, Y -53.2, Z 17.5, A 0, B 90, C 0} C_DIS
LIN {X -26.71, Y -53.7, Z 17.5, A 0, B 90, C 0} C_DIS
LIN {X -24.29, Y -54.86, Z 17.5, A 0, B 90, C 0} C_DIS
LIN {X -23.22, Y -55.3, Z 17.5, A 0, B 90, C 0} C_DIS
LIN {X -20.72, Y -56.31, Z 17.5, A 0, B 90, C 0} C_DIS
LIN {X -19.63, Y -56.67, Z 17.5, A 0, B 90, C 0} C_DIS
LIN {X -17.07, Y -57.52, Z 17.5, A 0, B 90, C 0} C_DIS
LIN {X -15.96, Y -57.81, Z 17.5, A 0, B 90, C 0} C_DIS
LIN {X -13.35, Y -58.5, Z 17.5, A 0, B 90, C 0} C_DIS
LIN {X -12.22, Y -58.72, Z 17.5, A 0, B 90, C 0} C_DIS
LIN {X -9.58, Y -59.23, Z 17.5, A 0, B 90, C 0} C_DIS
LIN {X -8.43, Y -59.38, Z 17.5, A 0, B 90, C 0} C_DIS
LIN {X -5.76, Y -59.72, Z 17.5, A 0, B 90, C 0} C_DIS
LIN {X -4.61, Y -59.8, Z 17.5, A 0, B 90, C 0} C_DIS
LIN {X -1.92, Y -59.97, Z 17.5, A 0, B 90, C 0} C_DIS
LIN {X -0.77, Y -59.97, Z 17.5, A 0, B 90, C 0} C_DIS
LIN {X 1.92, Y -59.97, Z 17.5, A 0, B 90, C 0} C_DIS
LIN {X 3.07, Y -59.9, Z 17.5, A 0, B 90, C 0} C_DIS
LIN {X 5.76, Y -59.72, Z 17.5, A 0, B 90, C 0} C_DIS
LIN {X 6.91, Y -59.58, Z 17.5, A 0, B 90, C 0} C_DIS
LIN {X 9.58, Y -59.23, Z 17.5, A 0, B 90, C 0} C_DIS
LIN {X 10.71, Y -59.01, Z 17.5, A 0, B 90, C 0} C_DIS
LIN {X 13.35, Y -58.5, Z 17.5, A 0, B 90, C 0} C_DIS
LIN {X 14.47, Y -58.2, Z 17.5, A 0, B 90, C 0} C_DIS
LIN {X 17.07, Y -57.52, Z 17.5, A 0, B 90, C 0} C_DIS
LIN {X 18.17, Y -57.16, Z 17.5, A 0, B 90, C 0} C_DIS
LIN {X 20.72, Y -56.31, Z 17.5, A 0, B 90, C 0} C_DIS
LIN {X 21.79, Y -55.88, Z 17.5, A 0, B 90, C 0} C_DIS
LIN {X 24.29, Y -54.86, Z 17.5, A 0, B 90, C 0} C_DIS
LIN {X 25.33, Y -54.36, Z 17.5, A 0, B 90, C 0} C_DIS
LIN {X 27.75, Y -53.2, Z 17.5, A 0, B 90, C 0} C_DIS
LIN {X 28.76, Y -52.63, Z 17.5, A 0, B 90, C 0} C_DIS
LIN {X 31.1, Y -51.31, Z 17.5, A 0, B 90, C 0} C_DIS
LIN {X 32.07, Y -50.68, Z 17.5, A 0, B 90, C 0} C_DIS
LIN {X 34.33, Y -49.21, Z 17.5, A 0, B 90, C 0} C_DIS
LIN {X 35.25, Y -48.52, Z 17.5, A 0, B 90, C 0} C_DIS
LIN {X 37.41, Y -46.91, Z 17.5, A 0, B 90, C 0} C_DIS
LIN {X 38.29, Y -46.16, Z 17.5, A 0, B 90, C 0} C_DIS
LIN {X 40.34, Y -44.42, Z 17.5, A 0, B 90, C 0} C_DIS
LIN {X 41.17, Y -43.61, Z 17.5, A 0, B 90, C 0} C_DIS
LIN {X 43.1, Y -41.74, Z 17.5, A 0, B 90, C 0} C_DIS
LIN {X 43.88, Y -40.89, Z 17.5, A 0, B 90, C 0} C_DIS
LIN {X 45.69, Y -38.89, Z 17.5, A 0, B 90, C 0} C_DIS
LIN {X 46.41, Y -37.99, Z 17.5, A 0, B 90, C 0} C_DIS
LIN {X 48.08, Y -35.89, Z 17.5, A 0, B 90, C 0} C_DIS
LIN {X 48.74, Y -34.94, Z 17.5, A 0, B 90, C 0} C_DIS
LIN {X -34.33, Y -49.21, Z 22.5, A 0, B 90, C 0} C_DIS
LIN {X -34.33, Y -49.21, Z 20.0, A 0, B 90, C 0} C_DIS
LIN {X -33.2, Y -49.94, Z 20.0, A 0, B 90, C 0} C_DIS
LIN {X -31.1, Y -51.31, Z 20.0, A 0, B 90, C 0} C_DIS
LIN {X -29.93, Y -51.97, Z 20.0, A 0, B 90, C 0} C_DIS
LIN {X -27.75, Y -53.2, Z 20.0, A 0, B 90, C 0} C_DIS
LIN {X -26.54, Y -53.78, Z 20.0, A 0, B 90, C 0} C_DIS
LIN {X -24.29, Y -54.86, Z 20.0, A 0, B 90, C 0} C_DIS
LIN {X -23.04, Y -55.37, Z 20.0, A 0, B 90, C 0} C_DIS
LIN {X -20.72, Y -56.31, Z 20.0, A 0, B 90, C 0} C_DIS
LIN {X -19.44, Y -56.73, Z 20.0, A 0, B 90, C 0} C_DIS
LIN {X -17.07, Y -57.52, Z 20.0, A 0, B 90, C 0} C_DIS
LIN {X -15.77, Y -57.86, Z 20.0, A 0, B 90, C 0} C_DIS
LIN {X -13.35, Y -58.5, Z 20.0, A 0, B 90, C 0} C_DIS
LIN {X -12.03, Y -58.75, Z 20.0, A 0, B 90, C 0} C_DIS
LIN {X -9.58, Y -59.23, Z 20.0, A 0, B 90, C 0} C_DIS
LIN {X -8.24, Y -59.4, Z 20.0, A 0, B 90, C 0} C_DIS
LIN {X -5.76, Y -59.72, Z 20.0, A 0, B 90, C 0} C_DIS
LIN {X -4.42, Y -59.81, Z 20.0, A 0, B 90, C 0} C_DIS
LIN {X -1.92, Y -59.97, Z 20.0, A 0, B 90, C 0} C_DIS
LIN {X -0.58, Y -59.97, Z 20.0, A 0, B 90, C 0} C_DIS
LIN {X 1.92, Y -59.97, Z 20.0, A 0, B 90, C 0} C_DIS
LIN {X 3.27, Y -59.88, Z 20.0, A 0, B 90, C 0} C_DIS
LIN {X 5.76, Y -59.72, Z 20.0, A 0, B 90, C 0} C_DIS
LIN {X 7.1, Y -59.55, Z 20.0, A 0, B 90, C 0} C_DIS
LIN {X 9.58, Y -59.23, Z 20.0, A 0, B 90, C 0} C_DIS
LIN {X 10.9, Y -58.97, Z 20.0, A 0, B 90, C 0} C_DIS
LIN {X 13.35, Y -58.5, Z 20.0, A 0, B 90, C 0} C_DIS
LIN {X 14.65, Y -58.15, Z 20.0, A 0, B 90, C 0} C_DIS
LIN {X 17.07, Y -57.52, Z 20.0, A 0, B 90, C 0} C_DIS
LIN {X 18.35, Y -57.1, Z 20.0, A 0, B 90, C 0} C_DIS
LIN {X 20.72, Y -56.31, Z 20.0, A 0, B 90, C 0} C_DIS
LIN {X 21.97, Y -55.8, Z 20.0, A 0, B 90, C 0} C_DIS
LIN {X 24.29, Y -54.86, Z 20.0, A 0, B 90, C 0} C_DIS
LIN {X 25.5, Y -54.28, Z 20.0, A 0, B 90, C 0} C_DIS
LIN {X 27.75, Y -53.2, Z 20.0, A 0, B 90, C 0} C_DIS
LIN {X 28.93, Y -52.54, Z 20.0, A 0, B 90, C 0} C_DIS
LIN {X 31.1, Y -51.31, Z 20.0, A 0, B 90, C 0} C_DIS
LIN {X 32.23, Y -50.57, Z 20.0, A 0, B 90, C 0} C_DIS
LIN {X 34.33, Y -49.21, Z 20.0, A 0, B 90, C 0} C_DIS
LIN {X 35.41, Y -48.41, Z 20.0, A 0, B 90, C 0} C_DIS
LIN {X 37.41, Y -46.91, Z 20.0, A 0, B 90, C 0} C_DIS
LIN {X 38.43, Y -46.04, Z 20.0, A 0, B 90, C 0} C_DIS
LIN {X 40.34, Y -44.42, Z 20.0, A 0, B 90, C 0} C_DIS
LIN {X 41.31, Y -43.48, Z 20.0, A 0, B 90, C 0} C_DIS
LIN {X 43.1, Y -41.74, Z 20.0, A 0, B 90, C 0} C_DIS
LIN {X 44.01, Y -40.74, Z 20.0, A 0, B 90, C 0} C_DIS
LIN {X 45.69, Y -38.89, Z 20.0, A 0, B 90, C 0} C_DIS
LIN {X 46.53, Y -37.84, Z 20.0, A 0, B 90, C 0} C_DIS
LIN {X 48.08, Y -35.89, Z 20.0, A 0, B 90, C 0} C_DIS
LIN {X 48.85, Y -34.78, Z 20.0, A 0, B 90, C 0} C_DIS
LIN {X 50.29, Y -32.73, Z 20.0, A 0, B 90, C 0} C_DIS
LIN {X 50.98, Y -31.58, Z 20.0, A 0, B 90, C 0} C_DIS
LIN {X 52.28, Y -29.44, Z 20.0, A 0, B 90, C 0} C_DIS
LIN {X 52.9, Y -28.25, Z 20.0, A 0, B 90, C 0} C_DIS
LIN {X 54.06, Y -26.03, Z 20.0, A 0, B 90, C 0} C_DIS
LIN {X 54.6, Y -24.8, Z 20.0, A 0, B 90, C 0} C_DIS
LIN {X 55.62, Y -22.52, Z 20.0, A 0, B 90, C 0} C_DIS
LIN {X 56.08, Y -21.25, Z 20.0, A 0, B 90, C 0} C_DIS
LIN {X 56.94, Y -18.91, Z 20.0, A 0, B 90, C 0} C_DIS
LIN {X 57.33, Y -17.62, Z 20.0, A 0, B 90, C 0} C_DIS
LIN {X 58.04, Y -15.22, Z 20.0, A 0, B 90, C 0} C_DIS
LIN {X 58.34, Y -13.91, Z 20.0, A 0, B 90, C 0} C_DIS
LIN {X 58.89, Y -11.47, Z 20.0, A 0, B 90, C 0} C_DIS
LIN {X 59.11, Y -10.14, Z 20.0, A 0, B 90, C 0} C_DIS
LIN {X 59.51, Y -7.67, Z 20.0, A 0, B 90, C 0} C_DIS
LIN {X 59.64, Y -6.33, Z 20.0, A 0, B 90, C 0} C_DIS
LIN {X 59.88, Y -3.84, Z 20.0, A 0, B 90, C 0} C_DIS
LIN {X 59.92, Y -2.5, Z 20.0, A 0, B 90, C 0} C_DIS
LIN {X 60.0, Y 0.0, Z 20.0, A 0, B 90, C 0} C_DIS
LIN {X 59.96, Y 1.35, Z 20.0, A 0, B 90, C 0} C_DIS
LIN {X 59.88, Y 3.84, Z 20.0, A 0, B 90, C 0} C_DIS
LIN {X 59.75, Y 5.18, Z 20.0, A 0, B 90, C 0} C_DIS
LIN {X 59.51, Y 7.67, Z 20.0, A 0, B 90, C 0} C_DIS
LIN {X 59.29, Y 9.0, Z 20.0, A 0, B 90, C 0} C_DIS
LIN {X 58.89, Y 11.47, Z 20.0, A 0, B 90, C 0} C_DIS
LIN {X 58.59, Y 12.78, Z 20.0, A 0, B 90, C 0} C_DIS
LIN {X 58.04, Y 15.22, Z 20.0, A 0, B 90, C 0} C_DIS
LIN {X 57.65, Y 16.51, Z 20.0, A 0, B 90, C 0} C_DIS
LIN {X 56.94, Y 18.91, Z 20.0, A 0, B 90, C 0} C_DIS
LIN {X 56.48, Y 20.17, Z 20.0, A 0, B 90, C 0} C_DIS
LIN {X 55.62, Y 22.52, Z 20.0, A 0, B 90, C 0} C_DIS
LIN {X 55.07, Y 23.75, Z 20.0, A 0, B 90, C 0} C_DIS
LIN {X 54.06, Y 26.03, Z 20.0, A 0, B 90, C 0} C_DIS
LIN {X 53.44, Y 27.23, Z 20.0, A 0, B 90, C 0} C_DIS
LIN {X 52.28, Y 29.44, Z 20.0, A 0, B 90, C 0} C_DIS
LIN {X 51.58, Y 30.59, Z 20.0, A 0, B 90, C 0} C_DIS
LIN {X 50.29, Y 32.73, Z 20.0, A 0, B 90, C 0} C_DIS
LIN {X 49.52, Y 33.84, Z 20.0, A 0, B 90, C 0} C_DIS
LIN {X 48.08, Y 35.89, Z 20.0, A 0, B 90, C 0} C_DIS
LIN {X 47.25, Y 36.94, Z 20.0, A 0, B 90, C 0} C_DIS
LIN {X 45.69, Y 38.89, Z 20.0, A 0, B 90, C 0} C_DIS
LIN {X 44.78, Y 39.89, Z 20.0, A 0, B 90, C 0} C_DIS
LIN {X 43.1, Y 41.74, Z 20.0, A 0, B 90, C 0} C_DIS
LIN {X 42.13, Y 42.68, Z 20.0, A 0, B 90, C 0} C_DIS
LIN {X 40.34, Y 44.42, Z 20.0, A 0, B 90, C 0} C_DIS
LIN {X 39.31, Y 45.29, Z 20.0, A 0, B 90, C 0} C_DIS
LIN {X 37.41, Y 46.91, Z 20.0, A 0, B 90, C 0} C_DIS
LIN {X 36.33, Y 47.72, Z 20.0, A 0, B 90, C 0} C_DIS
LIN {X 34.33, Y 49.21, Z 20.0, A 0, B 90, C 0} C_DIS
LIN {X 33.2, Y 49.94, Z 20.0, A 0, B 90, C 0} C_DIS
LIN {X 31.1, Y 51.31, Z 20.0, A 0, B 90, C 0} C_DIS
LIN {X 29.93, Y 51.97, Z 20.0, A 0, B 90, C 0} C_DIS
LIN {X 27.75, Y 53.2, Z 20.0, A 0, B 90, C 0} C_DIS
LIN {X 26.54, Y 53.78, Z 20.0, A 0, B 90, C 0} C_DIS
LIN {X 24.29, Y 54.86, Z 20.0, A 0, B 90, C 0} C_DIS
LIN {X 23.04, Y 55.37, Z 20.0, A 0, B 90, C 0} C_DIS
LIN {X 20.72, Y 56.31, Z 20.0, A 0, B 90, C 0} C_DIS
LIN {X 19.44, Y 56.73, Z 20.0, A 0, B 90, C 0} C_DIS
LIN {X 17.07, Y 57.52, Z 20.0, A 0, B 90, C 0} C_DIS
LIN {X 15.77, Y 57.86, Z 20.0, A 0, B 90, C 0} C_DIS
LIN {X 13.35, Y 58.5, Z 20.0, A 0, B 90, C 0} C_DIS
LIN {X 12.03, Y 58.75, Z 20.0, A 0, B 90, C 0} C_DIS
LIN {X 9.58, Y 59.23, Z 20.0, A 0, B 90, C 0} C_DIS
LIN {X 8.24, Y 59.4, Z 20.0, A 0, B 90, C 0} C_DIS
LIN {X 5.76, Y 59.72, Z 20.0, A 0, B 90, C 0} C_DIS
LIN {X 4.42, Y 59.81, Z 20.0, A 0, B 90, C 0} C_DIS
LIN {X 1.92, Y 59.97, Z 20.0, A 0, B 90, C 0} C_DIS
LIN {X 0.58, Y 59.97, Z 20.0, A 0, B 90, C 0} C_DIS
LIN {X -1.92, Y 59.97, Z 20.0, A 0, B 90, C 0} C_DIS
LIN {X -3.27, Y 59.88, Z 20.0, A 0, B 90, C 0} C_DIS
LIN {X -5.76, Y 59.72, Z 20.0, A 0, B 90, C 0} C_DIS
LIN {X -7.1, Y 59.55, Z 20.0, A 0, B 90, C 0} C_DIS
LIN {X -9.58, Y 59.23, Z 20.0, A 0, B 90, C 0} C_DIS
LIN {X -10.9, Y 58.97, Z 20.0, A 0, B 90, C 0} C_DIS
LIN {X -13.35, Y 58.5, Z 20.0, A 0, B 90, C 0} C_DIS
LIN {X -14.65, Y 58.15, Z 20.0, A 0, B 90, C 0} C_DIS
LIN {X -17.07, Y 57.52, Z 20.0, A 0, B 90, C 0} C_DIS
LIN {X -18.35, Y 57.1, Z 20.0, A 0, B 90, C 0} C_DIS
LIN {X -20.72, Y 56.31, Z 20.0, A 0, B 90, C 0} C_DIS
LIN {X -21.97, Y 55.8, Z 20.0, A 0, B 90, C 0} C_DIS
LIN {X -24.29, Y 54.86, Z 20.0, A 0, B 90, C 0} C_DIS
LIN {X -25.5, Y 54.28, Z 20.0, A 0, B 90, C 0} C_DIS
LIN {X -27.75, Y 53.2, Z 20.0, A 0, B 90, C 0} C_DIS
LIN {X -28.93, Y 52.54, Z 20.0, A 0, B 90, C 0} C_DIS
LIN {X -31.1, Y 51.31, Z 20.0, A 0, B 90, C 0} C_DIS
LIN {X -32.23, Y 50.57, Z 20.0, A 0, B 90, C 0} C_DIS
LIN {X -34.33, Y 49.21, Z 20.0, A 0, B 90, C 0} C_DIS
LIN {X -35.41, Y 48.41, Z 20.0, A 0, B 90, C 0} C_DIS
LIN {X -37.41, Y 46.91, Z 20.0, A 0, B 90, C 0} C_DIS
LIN {X -38.43, Y 46.04, Z 20.0, A 0, B 90, C 0} C_DIS
LIN {X -40.34, Y 44.42, Z 20.0, A 0, B 90, C 0} C_DIS
LIN {X -41.31, Y 43.48, Z 20.0, A 0, B 90, C 0} C_DIS
LIN {X -43.1, Y 41.74, Z 20.0, A 0, B 90, C 0} C_DIS
LIN {X -44.01, Y 40.74, Z 20.0, A 0, B 90, C 0} C_DIS
LIN {X -45.69, Y 38.89, Z 20.0, A 0, B 90, C 0} C_DIS
LIN {X -46.53, Y 37.84, Z 20.0, A 0, B 90, C 0} C_DIS
LIN {X -48.08, Y 35.89, Z 20.0, A 0, B 90, C 0} C_DIS
LIN {X -48.85, Y 34.78, Z 20.0, A 0, B 90, C 0} C_DIS
LIN {X -50.29, Y 32.73, Z 20.0, A 0, B 90, C 0} C_DIS
LIN {X -50.98, Y 31.58, Z 20.0, A 0, B 90, C 0} C_DIS
LIN {X -52.28, Y 29.44, Z 20.0, A 0, B 90, C 0} C_DIS
LIN {X -52.9, Y 28.25, Z 20.0, A 0, B 90, C 0} C_DIS
LIN {X -54.06, Y 26.03, Z 20.0, A 0, B 90, C 0} C_DIS
LIN {X -54.6, Y 24.8, Z 20.0, A 0, B 90, C 0} C_DIS
LIN {X -55.62, Y 22.52, Z 20.0, A 0, B 90, C 0} C_DIS
LIN {X -56.08, Y 21.25, Z 20.0, A 0, B 90, C 0} C_DIS
LIN {X -56.94, Y 18.91, Z 20.0, A 0, B 90, C 0} C_DIS
LIN {X -57.33, Y 17.62, Z 20.0, A 0, B 90, C 0} C_DIS
LIN {X -58.04, Y 15.22, Z 20.0, A 0, B 90, C 0} C_DIS
LIN {X -58.34, Y 13.91, Z 20.0, A 0, B 90, C 0} C_DIS
LIN {X -58.89, Y 11.47, Z 20.0, A 0, B 90, C 0} C_DIS
LIN {X -59.11, Y 10.14, Z 20.0, A 0, B 90, C 0} C_DIS
LIN {X -59.51, Y 7.67, Z 20.0, A 0, B 90, C 0} C_DIS
LIN {X -59.64, Y 6.33, Z 20.0, A 0, B 90, C 0} C_DIS
LIN {X -59.88, Y 3.84, Z 20.0, A 0, B 90, C 0} C_DIS
LIN {X -59.92, Y 2.5, Z 20.0, A 0, B 90, C 0} C_DIS
LIN {X -60.0, Y -0.0, Z 20.0, A 0, B 90, C 0} C_DIS
LIN {X -59.96, Y -1.35, Z 20.0, A 0, B 90, C 0} C_DIS
LIN {X -59.88, Y -3.84, Z 20.0, A 0, B 90, C 0} C_DIS
LIN {X -59.75, Y -5.18, Z 20.0, A 0, B 90, C 0} C_DIS
LIN {X -59.51, Y -7.67, Z 20.0, A 0, B 90, C 0} C_DIS
LIN {X -59.29, Y -9.0, Z 20.0, A 0, B 90, C 0} C_DIS
LIN {X -58.89, Y -11.47, Z 20.0, A 0, B 90, C 0} C_DIS
LIN {X -58.59, Y -12.78, Z 20.0, A 0, B 90, C 0} C_DIS
LIN {X -58.04, Y -15.22, Z 20.0, A 0, B 90, C 0} C_DIS
LIN {X -57.65, Y -16.51, Z 20.0, A 0, B 90, C 0} C_DIS
LIN {X -56.94, Y -18.91, Z 20.0, A 0, B 90, C 0} C_DIS
LIN {X -56.48, Y -20.17, Z 20.0, A 0, B 90, C 0} C_DIS
LIN {X -55.62, Y -22.52, Z 20.0, A 0, B 90, C 0} C_DIS
LIN {X -55.07, Y -23.75, Z 20.0, A 0, B 90, C 0} C_DIS
LIN {X -54.06, Y -26.03, Z 20.0, A 0, B 90, C 0} C_DIS
LIN {X -53.44, Y -27.23, Z 20.0, A 0, B 90, C 0} C_DIS
LIN {X -52.28, Y -29.44, Z 20.0, A 0, B 90, C 0} C_DIS
LIN {X -51.58, Y -30.59, Z 20.0, A 0, B 90, C 0} C_DIS
LIN {X -50.29, Y -32.73, Z 20.0, A 0, B 90, C 0} C_DIS
LIN {X -49.52, Y -33.84, Z 20.0, A 0, B 90, C 0} C_DIS
LIN {X -48.08, Y -35.89, Z 20.0, A 0, B 90, C 0} C_DIS
LIN {X -47.25, Y -36.94, Z 20.0, A 0, B 90, C 0} C_DIS
LIN {X -45.69, Y -38.89, Z 20.0, A 0, B 90, C 0} C_DIS
LIN {X -44.78, Y -39.89, Z 20.0, A 0, B 90, C 0} C_DIS
LIN {X -43.1, Y -41.74, Z 20.0, A 0, B 90, C 0} C_DIS
LIN {X -42.13, Y -42.68, Z 20.0, A 0, B 90, C 0} C_DIS
LIN {X -40.34, Y -44.42, Z 20.0, A 0, B 90, C 0} C_DIS
LIN {X -39.31, Y -45.29, Z 20.0, A 0, B 90, C 0} C_DIS
LIN {X -37.41, Y -46.91, Z 20.0, A 0, B 90, C 0} C_DIS
LIN {X -36.33, Y -47.72, Z 20.0, A 0, B 90, C 0} C_DIS
LIN {X -34.33, Y -49.21, Z 20.0, A 0, B 90, C 0} C_DIS
LIN {X -51.48, Y -30.76, Z 25.0, A 0, B 90, C 0} C_DIS
LIN {X -51.48, Y -30.76, Z 22.5, A 0, B 90, C 0} C_DIS
LIN {X -50.29, Y -32.73, Z 22.5, A 0, B 90, C 0} C_DIS
LIN {X -49.41, Y -33.99, Z 22.5, A 0, B 90, C 0} C_DIS
LIN {X -48.08, Y -35.89, Z 22.5, A 0, B 90, C 0} C_DIS
LIN {X -47.13, Y -37.09, Z 22.5, A 0, B 90, C 0} C_DIS
LIN {X -45.69, Y -38.89, Z 22.5, A 0, B 90, C 0} C_DIS
LIN {X -44.65, Y -40.03, Z 22.5, A 0, B 90, C 0} C_DIS
LIN {X -43.1, Y -41.74, Z 22.5, A 0, B 90, C 0} C_DIS
LIN {X -42.0, Y -42.81, Z 22.5, A 0, B 90, C 0} C_DIS
LIN {X -40.34, Y -44.42, Z 22.5, A 0, B 90, C 0} C_DIS
LIN {X -39.17, Y -45.41, Z 22.5, A 0, B 90, C 0} C_DIS
LIN {X -37.41, Y -46.91, Z 22.5, A 0, B 90, C 0} C_DIS
LIN {X -36.18, Y -47.83, Z 22.5, A 0, B 90, C 0} C_DIS
LIN {X -34.33, Y -49.21, Z 22.5, A 0, B 90, C 0} C_DIS
LIN {X -33.04, Y -50.05, Z 22.5, A 0, B 90, C 0} C_DIS
LIN {X -31.1, Y -51.31, Z 22.5, A 0, B 90, C 0} C_DIS
LIN {X -29.76, Y -52.06, Z 22.5, A 0, B 90, C 0} C_DIS
LIN {X -27.75, Y -53.2, Z 22.5, A 0, B 90, C 0} C_DIS
LIN {X -26.37, Y -53.86, Z 22.5, A 0, B 90, C 0} C_DIS
LIN {X -24.29, Y -54.86, Z 22.5, A 0, B 90, C 0} C_DIS
LIN {X -22.86, Y -55.44, Z 22.5, A 0, B 90, C 0} C_DIS
LIN {X -20.72, Y -56.31, Z 22.5, A 0, B 90, C 0} C_DIS
LIN {X -19.26, Y -56.79, Z 22.5, A 0, B 90, C 0} C_DIS
LIN {X -17.07, Y -57.52, Z 22.5, A 0, B 90, C 0} C_DIS
LIN {X -15.58, Y -57.91, Z 22.5, A 0, B 90, C 0} C_DIS
LIN {X -13.35, Y -58.5, Z 22.5, A 0, B 90, C 0} C_DIS
LIN {X -11.84, Y -58.79, Z 22.5, A 0, B 90, C 0} C_DIS
LIN {X -9.58, Y -59.23, Z 22.5, A 0, B 90, C 0} C_DIS
LIN {X -8.05, Y -59.43, Z 22.5, A 0, B 90, C 0} C_DIS
LIN {X -5.76, Y -59.72, Z 22.5, A 0, B 90, C 0} C_DIS
LIN {X -4.23, Y -59.82, Z 22.5, A 0, B 90, C 0} C_DIS
LIN {X -1.92, Y -59.97, Z 22.5, A 0, B 90, C 0} C_DIS
LIN {X -0.38, Y -59.97, Z 22.5, A 0, B 90, C 0} C_DIS
LIN {X 1.92, Y -59.97, Z 22.5, A 0, B 90, C 0} C_DIS
LIN {X 3.46, Y -59.87, Z 22.5, A 0, B 90, C 0} C_DIS
LIN {X 5.76, Y -59.72, Z 22.5, A 0, B 90, C 0} C_DIS
LIN {X 7.29, Y -59.53, Z 22.5, A 0, B 90, C 0} C_DIS
LIN {X 9.58, Y -59.23, Z 22.5, A 0, B 90, C 0} C_DIS
LIN {X 11.09, Y -58.94, Z 22.5, A 0, B 90, C 0} C_DIS
LIN {X 13.35, Y -58.5, Z 22.5, A 0, B 90, C 0} C_DIS
LIN {X 14.84, Y -58.11, Z 22.5, A 0, B 90, C 0} C_DIS
LIN {X 17.07, Y -57.52, Z 22.5, A 0, B 90, C 0} C_DIS
LIN {X 18.53, Y -57.04, Z 22.5, A 0, B 90, C 0} C_DIS
LIN {X 20.72, Y -56.31, Z 22.5, A 0, B 90, C 0} C_DIS
LIN {X 22.15, Y -55.73, Z 22.5, A 0, B 90, C 0} C_DIS
LIN {X 24.29, Y -54.86, Z 22.5, A 0, B 90, C 0} C_DIS
LIN {X 25.67, Y -54.2, Z 22.5, A 0, B 90, C 0} C_DIS
LIN {X 27.75, Y -53.2, Z 22.5, A 0, B 90, C 0} C_DIS
LIN {X 29.09, Y -52.44, Z 22.5, A 0, B 90, C 0} C_DIS
LIN {X 31.1, Y -51.31, Z 22.5, A 0, B 90, C 0} C_DIS
LIN {X 32.39, Y -50.47, Z 22.5, A 0, B 90, C 0} C_DIS
LIN {X 34.33, Y -49.21, Z 22.5, A 0, B 90, C 0} C_DIS
LIN {X 35.56, Y -48.29, Z 22.5, A 0, B 90, C 0} C_DIS
LIN {X 37.41, Y -46.91, Z 22.5, A 0, B 90, C 0} C_DIS
LIN {X 38.58, Y -45.91, Z 22.5, A 0, B 90, C 0} C_DIS
LIN {X 40.34, Y -44.42, Z 22.5, A 0, B 90, C 0} C_DIS
LIN {X 41.44, Y -43.35, Z 22.5, A 0, B 90, C 0} C_DIS
LIN {X 43.1, Y -41.74, Z 22.5, A 0, B 90, C 0} C_DIS
LIN {X 44.14, Y -40.6, Z 22.5, A 0, B 90, C 0} C_DIS
LIN {X 45.69, Y -38.89, Z 22.5, A 0, B 90, C 0} C_DIS
LIN {X 46.65, Y -37.69, Z 22.5, A 0, B 90, C 0} C_DIS
LIN {X 48.08, Y -35.89, Z 22.5, A 0, B 90, C 0} C_DIS
LIN {X 48.97, Y -34.62, Z 22.5, A 0, B 90, C 0} C_DIS
LIN {X 50.29, Y -32.73, Z 22.5, A 0, B 90, C 0} C_DIS
LIN {X 51.08, Y -31.42, Z 22.5, A 0, B 90, C 0} C_DIS
LIN {X 52.28, Y -29.44, Z 22.5, A 0, B 90, C 0} C_DIS
LIN {X 52.99, Y -28.08, Z 22.5, A 0, B 90, C 0} C_DIS
LIN {X 54.06, Y -26.03, Z 22.5, A 0, B 90, C 0} C_DIS
LIN {X 54.68, Y -24.63, Z 22.5, A 0, B 90, C 0} C_DIS
LIN {X 55.62, Y -22.52, Z 22.5, A 0, B 90, C 0} C_DIS
LIN {X 56.15, Y -21.07, Z 22.5, A 0, B 90, C 0} C_DIS
LIN {X 56.94, Y -18.91, Z 22.5, A 0, B 90, C 0} C_DIS
LIN {X 57.38, Y -17.43, Z 22.5, A 0, B 90, C 0} C_DIS
LIN {X 58.04, Y -15.22, Z 22.5, A 0, B 90, C 0} C_DIS
LIN {X 58.38, Y -13.72, Z 22.5, A 0, B 90, C 0} C_DIS
LIN {X 58.89, Y -11.47, Z 22.5, A 0, B 90, C 0} C_DIS
LIN {X 59.14, Y -9.95, Z 22.5, A 0, B 90, C 0} C_DIS
LIN {X 59.51, Y -7.67, Z 22.5, A 0, B 90, C 0} C_DIS
LIN {X 59.66, Y -6.14, Z 22.5, A 0, B 90, C 0} C_DIS
LIN {X 59.88, Y -3.84, Z 22.5, A 0, B 90, C 0} C_DIS
LIN {X 59.93, Y -2.31, Z 22.5, A 0, B 90, C 0} C_DIS
LIN {X 60.0, Y -0.0, Z 22.5, A 0, B 90, C 0} C_DIS
LIN {X 59.95, Y 1.54, Z 22.5, A 0, B 90, C 0} C_DIS
LIN {X 59.88, Y 3.84, Z 22.5, A 0, B 90, C 0} C_DIS
LIN {X 59.73, Y 5.38, Z 22.5, A 0, B 90, C 0} C_DIS
LIN {X 59.51, Y 7.67, Z 22.5, A 0, B 90, C 0} C_DIS
LIN {X 59.26, Y 9.19, Z 22.5, A 0, B 90, C 0} C_DIS
LIN {X 58.89, Y 11.47, Z 22.5, A 0, B 90, C 0} C_DIS
LIN {X 58.55, Y 12.97, Z 22.5, A 0, B 90, C 0} C_DIS
LIN {X 58.04, Y 15.22, Z 22.5, A 0, B 90, C 0} C_DIS
LIN {X 57.6, Y 16.69, Z 22.5, A 0, B 90, C 0} C_DIS
LIN {X 56.94, Y 18.91, Z 22.5, A 0, B 90, C 0} C_DIS
LIN {X 56.41, Y 20.35, Z 22.5, A 0, B 90, C 0} C_DIS
LIN {X 55.62, Y 22.52, Z 22.5, A 0, B 90, C 0} C_DIS
LIN {X 54.99, Y 23.92, Z 22.5, A 0, B 90, C 0} C_DIS
LIN {X 54.06, Y 26.03, Z 22.5, A 0, B 90, C 0} C_DIS
LIN {X 53.35, Y 27.4, Z 22.5, A 0, B 90, C 0} C_DIS
LIN {X 52.28, Y 29.44, Z 22.5, A 0, B 90, C 0} C_DIS
LIN {X 51.48, Y 30.76, Z 22.5, A 0, B 90, C 0} C_DIS
LIN {X 50.29, Y 32.73, Z 22.5, A 0, B 90, C 0} C_DIS
LIN {X 49.41, Y 33.99, Z 22.5, A 0, B 90, C 0} C_DIS
LIN {X 48.08, Y 35.89, Z 22.5, A 0, B 90, C 0} C_DIS
LIN {X 47.13, Y 37.09, Z 22.5, A 0, B 90, C 0} C_DIS
LIN {X 45.69, Y 38.89, Z 22.5, A 0, B 90, C 0} C_DIS
LIN {X 44.65, Y 40.03, Z 22.5, A 0, B 90, C 0} C_DIS
LIN {X 43.1, Y 41.74, Z 22.5, A 0, B 90, C 0} C_DIS
LIN {X 42.0, Y 42.81, Z 22.5, A 0, B 90, C 0} C_DIS
LIN {X 40.34, Y 44.42, Z 22.5, A 0, B 90, C 0} C_DIS
LIN {X 39.17, Y 45.41, Z 22.5, A 0, B 90, C 0} C_DIS
LIN {X 37.41, Y 46.91, Z 22.5, A 0, B 90, C 0} C_DIS
LIN {X 36.18, Y 47.83, Z 22.5, A 0, B 90, C 0} C_DIS
LIN {X 34.33, Y 49.21, Z 22.5, A 0, B 90, C 0} C_DIS
LIN {X 33.04, Y 50.05, Z 22.5, A 0, B 90, C 0} C_DIS
LIN {X 31.1, Y 51.31, Z 22.5, A 0, B 90, C 0} C_DIS
LIN {X 29.76, Y 52.06, Z 22.5, A 0, B 90, C 0} C_DIS
LIN {X 27.75, Y 53.2, Z 22.5, A 0, B 90, C 0} C_DIS
LIN {X 26.37, Y 53.86, Z 22.5, A 0, B 90, C 0} C_DIS
LIN {X 24.29, Y 54.86, Z 22.5, A 0, B 90, C 0} C_DIS
LIN {X 22.86, Y 55.44, Z 22.5, A 0, B 90, C 0} C_DIS
LIN {X 20.72, Y 56.31, Z 22.5, A 0, B 90, C 0} C_DIS
LIN {X 19.26, Y 56.79, Z 22.5, A 0, B 90, C 0} C_DIS
LIN {X 17.07, Y 57.52, Z 22.5, A 0, B 90, C 0} C_DIS
LIN {X 15.58, Y 57.91, Z 22.5, A 0, B 90, C 0} C_DIS
LIN {X 13.35, Y 58.5, Z 22.5, A 0, B 90, C 0} C_DIS
LIN {X 11.84, Y 58.79, Z 22.5, A 0, B 90, C 0} C_DIS
LIN {X 9.58, Y 59.23, Z 22.5, A 0, B 90, C 0} C_DIS
LIN {X 8.05, Y 59.43, Z 22.5, A 0, B 90, C 0} C_DIS
LIN {X 5.76, Y 59.72, Z 22.5, A 0, B 90, C 0} C_DIS
LIN {X 4.23, Y 59.82, Z 22.5, A 0, B 90, C 0} C_DIS
LIN {X 1.92, Y 59.97, Z 22.5, A 0, B 90, C 0} C_DIS
LIN {X 0.38, Y 59.97, Z 22.5, A 0, B 90, C 0} C_DIS
LIN {X -1.92, Y 59.97, Z 22.5, A 0, B 90, C 0} C_DIS
LIN {X -3.46, Y 59.87, Z 22.5, A 0, B 90, C 0} C_DIS
LIN {X -5.76, Y 59.72, Z 22.5, A 0, B 90, C 0} C_DIS
LIN {X -7.29, Y 59.53, Z 22.5, A 0, B 90, C 0} C_DIS
LIN {X -9.58, Y 59.23, Z 22.5, A 0, B 90, C 0} C_DIS
LIN {X -11.09, Y 58.94, Z 22.5, A 0, B 90, C 0} C_DIS
LIN {X -13.35, Y 58.5, Z 22.5, A 0, B 90, C 0} C_DIS
LIN {X -14.84, Y 58.11, Z 22.5, A 0, B 90, C 0} C_DIS
LIN {X -17.07, Y 57.52, Z 22.5, A 0, B 90, C 0} C_DIS
LIN {X -18.53, Y 57.04, Z 22.5, A 0, B 90, C 0} C_DIS
LIN {X -20.72, Y 56.31, Z 22.5, A 0, B 90, C 0} C_DIS
LIN {X -22.15, Y 55.73, Z 22.5, A 0, B 90, C 0} C_DIS
LIN {X -24.29, Y 54.86, Z 22.5, A 0, B 90, C 0} C_DIS
LIN {X -25.67, Y 54.2, Z 22.5, A 0, B 90, C 0} C_DIS
LIN {X -27.75, Y 53.2, Z 22.5, A 0, B 90, C 0} C_DIS
LIN {X -29.09, Y 52.44, Z 22.5, A 0, B 90, C 0} C_DIS
LIN {X -31.1, Y 51.31, Z 22.5, A 0, B 90, C 0} C_DIS
LIN {X -32.39, Y 50.47, Z 22.5, A 0, B 90, C 0} C_DIS
LIN {X -34.33, Y 49.21, Z 22.5, A 0, B 90, C 0} C_DIS
LIN {X -35.56, Y 48.29, Z 22.5, A 0, B 90, C 0} C_DIS
LIN {X -37.41, Y 46.91, Z 22.5, A 0, B 90, C 0} C_DIS
LIN {X -38.58, Y 45.91, Z 22.5, A 0, B 90, C 0} C_DIS
LIN {X -40.34, Y 44.42, Z 22.5, A 0, B 90, C 0} C_DIS
LIN {X -41.44, Y 43.35, Z 22.5, A 0, B 90, C 0} C_DIS
LIN {X -43.1, Y 41.74, Z 22.5, A 0, B 90, C 0} C_DIS
LIN {X -44.14, Y 40.6, Z 22.5, A 0, B 90, C 0} C_DIS
LIN {X -45.69, Y 38.89, Z 22.5, A 0, B 90, C 0} C_DIS
LIN {X -46.65, Y 37.69, Z 22.5, A 0, B 90, C 0} C_DIS
LIN {X -48.08, Y 35.89, Z 22.5, A 0, B 90, C 0} C_DIS
LIN {X -48.97, Y 34.62, Z 22.5, A 0, B 90, C 0} C_DIS
LIN {X -50.29, Y 32.73, Z 22.5, A 0, B 90, C 0} C_DIS
LIN {X -51.08, Y 31.42, Z 22.5, A 0, B 90, C 0} C_DIS
LIN {X -52.28, Y 29.44, Z 22.5, A 0, B 90, C 0} C_DIS
LIN {X -52.99, Y 28.08, Z 22.5, A 0, B 90, C 0} C_DIS
LIN {X -54.06, Y 26.03, Z 22.5, A 0, B 90, C 0} C_DIS
LIN {X -54.68, Y 24.63, Z 22.5, A 0, B 90, C 0} C_DIS
LIN {X -55.62, Y 22.52, Z 22.5, A 0, B 90, C 0} C_DIS
LIN {X -56.15, Y 21.07, Z 22.5, A 0, B 90, C 0} C_DIS
LIN {X -56.94, Y 18.91, Z 22.5, A 0, B 90, C 0} C_DIS
LIN {X -57.38, Y 17.43, Z 22.5, A 0, B 90, C 0} C_DIS
LIN {X -58.04, Y 15.22, Z 22.5, A 0, B 90, C 0} C_DIS
LIN {X -58.38, Y 13.72, Z 22.5, A 0, B 90, C 0} C_DIS
LIN {X -58.89, Y 11.47, Z 22.5, A 0, B 90, C 0} C_DIS
LIN {X -59.14, Y 9.95, Z 22.5, A 0, B 90, C 0} C_DIS
LIN {X -59.51, Y 7.67, Z 22.5, A 0, B 90, C 0} C_DIS
LIN {X -59.66, Y 6.14, Z 22.5, A 0, B 90, C 0} C_DIS
LIN {X -59.88, Y 3.84, Z 22.5, A 0, B 90, C 0} C_DIS
LIN {X -59.93, Y 2.31, Z 22.5, A 0, B 90, C 0} C_DIS
LIN {X -60.0, Y -0.0, Z 22.5, A 0, B 90, C 0} C_DIS
LIN {X -59.95, Y -1.54, Z 22.5, A 0, B 90, C 0} C_DIS
LIN {X -59.88, Y -3.84, Z 22.5, A 0, B 90, C 0} C_DIS
LIN {X -59.73, Y -5.38, Z 22.5, A 0, B 90, C 0} C_DIS
LIN {X -59.51, Y -7.67, Z 22.5, A 0, B 90, C 0} C_DIS
LIN {X -59.26, Y -9.19, Z 22.5, A 0, B 90, C 0} C_DIS
LIN {X -58.89, Y -11.47, Z 22.5, A 0, B 90, C 0} C_DIS
LIN {X -58.55, Y -12.97, Z 22.5, A 0, B 90, C 0} C_DIS
LIN {X -58.04, Y -15.22, Z 22.5, A 0, B 90, C 0} C_DIS
LIN {X -57.6, Y -16.69, Z 22.5, A 0, B 90, C 0} C_DIS
LIN {X -56.94, Y -18.91, Z 22.5, A 0, B 90, C 0} C_DIS
LIN {X -56.41, Y -20.35, Z 22.5, A 0, B 90, C 0} C_DIS
LIN {X -55.62, Y -22.52, Z 22.5, A 0, B 90, C 0} C_DIS
LIN {X -54.99, Y -23.92, Z 22.5, A 0, B 90, C 0} C_DIS
LIN {X -54.06, Y -26.03, Z 22.5, A 0, B 90, C 0} C_DIS
LIN {X -53.35, Y -27.4, Z 22.5, A 0, B 90, C 0} C_DIS
LIN {X -52.28, Y -29.44, Z 22.5, A 0, B 90, C 0} C_DIS
LIN {X -51.48, Y -30.76, Z 22.5, A 0, B 90, C 0} C_DIS
LIN {X 59.67, Y -5.95, Z 27.5, A 0, B 90, C 0} C_DIS
LIN {X 59.67, Y -5.95, Z 25.0, A 0, B 90, C 0} C_DIS
LIN {X 59.88, Y -3.84, Z 25.0, A 0, B 90, C 0} C_DIS
LIN {X 59.93, Y -2.11, Z 25.0, A 0, B 90, C 0} C_DIS
LIN {X 60.0, Y 0.0, Z 25.0, A 0, B 90, C 0} C_DIS
LIN {X 59.94, Y 1.73, Z 25.0, A 0, B 90, C 0} C_DIS
LIN {X 59.88, Y 3.84, Z 25.0, A 0, B 90, C 0} C_DIS
LIN {X 59.71, Y 5.57, Z 25.0, A 0, B 90, C 0} C_DIS
LIN {X 59.51, Y 7.67, Z 25.0, A 0, B 90, C 0} C_DIS
LIN {X 59.23, Y 9.38, Z 25.0, A 0, B 90, C 0} C_DIS
LIN {X 58.89, Y 11.47, Z 25.0, A 0, B 90, C 0} C_DIS
LIN {X 58.51, Y 13.16, Z 25.0, A 0, B 90, C 0} C_DIS
LIN {X 58.04, Y 15.22, Z 25.0, A 0, B 90, C 0} C_DIS
LIN {X 57.55, Y 16.88, Z 25.0, A 0, B 90, C 0} C_DIS
LIN {X 56.94, Y 18.91, Z 25.0, A 0, B 90, C 0} C_DIS
LIN {X 56.35, Y 20.53, Z 25.0, A 0, B 90, C 0} C_DIS
LIN {X 55.62, Y 22.52, Z 25.0, A 0, B 90, C 0} C_DIS
LIN {X 54.91, Y 24.1, Z 25.0, A 0, B 90, C 0} C_DIS
LIN {X 54.06, Y 26.03, Z 25.0, A 0, B 90, C 0} C_DIS
LIN {X 53.26, Y 27.57, Z 25.0, A 0, B 90, C 0} C_DIS
LIN {X 52.28, Y 29.44, Z 25.0, A 0, B 90, C 0} C_DIS
LIN {X 51.38, Y 30.92, Z 25.0, A 0, B 90, C 0} C_DIS
LIN {X 50.29, Y 32.73, Z 25.0, A 0, B 90, C 0} C_DIS
LIN {X 49.3, Y 34.15, Z 25.0, A 0, B 90, C 0} C_DIS
LIN {X 48.08, Y 35.89, Z 25.0, A 0, B 90, C 0} C_DIS
LIN {X 47.01, Y 37.24, Z 25.0, A 0, B 90, C 0} C_DIS
LIN {X 45.69, Y 38.89, Z 25.0, A 0, B 90, C 0} C_DIS
LIN {X 44.52, Y 40.17, Z 25.0, A 0, B 90, C 0} C_DIS
LIN {X 43.1, Y 41.74, Z 25.0, A 0, B 90, C 0} C_DIS
LIN {X 41.86, Y 42.95, Z 25.0, A 0, B 90, C 0} C_DIS
LIN {X 40.34, Y 44.42, Z 25.0, A 0, B 90, C 0} C_DIS
LIN {X 39.02, Y 45.54, Z 25.0, A 0, B 90, C 0} C_DIS
LIN {X 37.41, Y 46.91, Z 25.0, A 0, B 90, C 0} C_DIS
LIN {X 36.02, Y 47.95, Z 25.0, A 0, B 90, C 0} C_DIS
LIN {X 34.33, Y 49.21, Z 25.0, A 0, B 90, C 0} C_DIS
LIN {X 32.88, Y 50.15, Z 25.0, A 0, B 90, C 0} C_DIS
LIN {X 31.1, Y 51.31, Z 25.0, A 0, B 90, C 0} C_DIS
LIN {X 29.6, Y 52.16, Z 25.0, A 0, B 90, C 0} C_DIS
LIN {X 27.75, Y 53.2, Z 25.0, A 0, B 90, C 0} C_DIS
LIN {X 26.19, Y 53.95, Z 25.0, A 0, B 90, C 0} C_DIS
LIN {X 24.29, Y 54.86, Z 25.0, A 0, B 90, C 0} C_DIS
LIN {X 22.68, Y 55.51, Z 25.0, A 0, B 90, C 0} C_DIS
LIN {X 20.72, Y 56.31, Z 25.0, A 0, B 90, C 0} C_DIS
LIN {X 19.08, Y 56.85, Z 25.0, A 0, B 90, C 0} C_DIS
LIN {X 17.07, Y 57.52, Z 25.0, A 0, B 90, C 0} C_DIS
LIN {X 15.4, Y 57.96, Z 25.0, A 0, B 90, C 0} C_DIS
LIN {X 13.35, Y 58.5, Z 25.0, A 0, B 90, C 0} C_DIS
LIN {X 11.65, Y 58.83, Z 25.0, A 0, B 90, C 0} C_DIS
LIN {X 9.58, Y 59.23, Z 25.0, A 0, B 90, C 0} C_DIS
LIN {X 7.86, Y 59.45, Z 25.0, A 0, B 90, C 0} C_DIS
LIN {X 5.76, Y 59.72, Z 25.0, A 0, B 90, C 0} C_DIS
LIN {X 4.03, Y 59.83, Z 25.0, A 0, B 90, C 0} C_DIS
LIN {X 1.92, Y 59.97, Z 25.0, A 0, B 90, C 0} C_DIS
LIN {X 0.19, Y 59.97, Z 25.0, A 0, B 90, C 0} C_DIS
LIN {X -1.92, Y 59.97, Z 25.0, A 0, B 90, C 0} C_DIS
LIN {X -3.65, Y 59.86, Z 25.0, A 0, B 90, C 0} C_DIS
LIN {X -5.76, Y 59.72, Z 25.0, A 0, B 90, C 0} C_DIS
LIN {X -7.48, Y 59.5, Z 25.0, A 0, B 90, C 0} C_DIS
LIN {X -9.58, Y 59.23, Z 25.0, A 0, B 90, C 0} C_DIS
LIN {X -11.27, Y 58.9, Z 25.0, A 0, B 90, C 0} C_DIS
LIN {X -13.35, Y 58.5, Z 25.0, A 0, B 90, C 0} C_DIS
LIN {X -15.03, Y 58.06, Z 25.0, A 0, B 90, C 0} C_DIS
LIN {X -17.07, Y 57.52, Z 25.0, A 0, B 90, C 0} C_DIS
LIN {X -18.71, Y 56.97, Z 25.0, A 0, B 90, C 0} C_DIS
LIN {X -20.72, Y 56.31, Z 25.0, A 0, B 90, C 0} C_DIS
LIN {X -22.33, Y 55.66, Z 25.0, A 0, B 90, C 0} C_DIS
LIN {X -24.29, Y 54.86, Z 25.0, A 0, B 90, C 0} C_DIS
LIN {X -25.85, Y 54.11, Z 25.0, A 0, B 90, C 0} C_DIS
LIN {X -27.75, Y 53.2, Z 25.0, A 0, B 90, C 0} C_DIS
LIN {X -29.26, Y 52.35, Z 25.0, A 0, B 90, C 0} C_DIS
LIN {X -31.1, Y 51.31, Z 25.0, A 0, B 90, C 0} C_DIS
LIN {X -32.55, Y 50.36, Z 25.0, A 0, B 90, C 0} C_DIS
LIN {X -34.33, Y 49.21, Z 25.0, A 0, B 90, C 0} C_DIS
LIN {X -35.71, Y 48.18, Z 25.0, A 0, B 90, C 0} C_DIS
LIN {X -37.41, Y 46.91, Z 25.0, A 0, B 90, C 0} C_DIS
LIN {X -38.73, Y 45.79, Z 25.0, A 0, B 90, C 0} C_DIS
LIN {X -40.34, Y 44.42, Z 25.0, A 0, B 90, C 0} C_DIS
LIN {X -41.58, Y 43.21, Z 25.0, A 0, B 90, C 0} C_DIS
LIN {X -43.1, Y 41.74, Z 25.0, A 0, B 90, C 0} C_DIS
LIN {X -44.26, Y 40.46, Z 25.0, A 0, B 90, C 0} C_DIS
LIN {X -45.69, Y 38.89, Z 25.0, A 0, B 90, C 0} C_DIS
LIN {X -46.77, Y 37.54, Z 25.0, A 0, B 90, C 0} C_DIS
LIN {X -48.08, Y 35.89, Z 25.0, A 0, B 90, C 0} C_DIS
LIN {X -49.08, Y 34.47, Z 25.0, A 0, B 90, C 0} C_DIS
LIN {X -50.29, Y 32.73, Z 25.0, A 0, B 90, C 0} C_DIS
LIN {X -51.18, Y 31.25, Z 25.0, A 0, B 90, C 0} C_DIS
LIN {X -52.28, Y 29.44, Z 25.0, A 0, B 90, C 0} C_DIS
LIN {X -53.08, Y 27.91, Z 25.0, A 0, B 90, C 0} C_DIS
LIN {X -54.06, Y 26.03, Z 25.0, A 0, B 90, C 0} C_DIS
LIN {X -54.76, Y 24.45, Z 25.0, A 0, B 90, C 0} C_DIS
LIN {X -55.62, Y 22.52, Z 25.0, A 0, B 90, C 0} C_DIS
LIN {X -56.21, Y 20.89, Z 25.0, A 0, B 90, C 0} C_DIS
LIN {X -56.94, Y 18.91, Z 25.0, A 0, B 90, C 0} C_DIS
LIN {X -57.44, Y 17.25, Z 25.0, A 0, B 90, C 0} C_DIS
LIN {X -58.04, Y 15.22, Z 25.0, A 0, B 90, C 0} C_DIS
LIN {X -58.42, Y 13.53, Z 25.0, A 0, B 90, C 0} C_DIS
LIN {X -58.89, Y 11.47, Z 25.0, A 0, B 90, C 0} C_DIS
LIN {X -59.17, Y 9.76, Z 25.0, A 0, B 90, C 0} C_DIS
LIN {X -59.51, Y 7.67, Z 25.0, A 0, B 90, C 0} C_DIS
LIN {X -59.67, Y 5.95, Z 25.0, A 0, B 90, C 0} C_DIS
LIN {X -59.88, Y 3.84, Z 25.0, A 0, B 90, C 0} C_DIS
LIN {X -59.93, Y 2.11, Z 25.0, A 0, B 90, C 0} C_DIS
LIN {X -60.0, Y -0.0, Z 25.0, A 0, B 90, C 0} C_DIS
LIN {X -59.94, Y -1.73, Z 25.0, A 0, B 90, C 0} C_DIS
LIN {X -59.88, Y -3.84, Z 25.0, A 0, B 90, C 0} C_DIS
LIN {X -59.71, Y -5.57, Z 25.0, A 0, B 90, C 0} C_DIS
LIN {X -59.51, Y -7.67, Z 25.0, A 0, B 90, C 0} C_DIS
LIN {X -59.23, Y -9.38, Z 25.0, A 0, B 90, C 0} C_DIS
LIN {X -58.89, Y -11.47, Z 25.0, A 0, B 90, C 0} C_DIS
LIN {X -58.51, Y -13.16, Z 25.0, A 0, B 90, C 0} C_DIS
LIN {X -58.04, Y -15.22, Z 25.0, A 0, B 90, C 0} C_DIS
LIN {X -57.55, Y -16.88, Z 25.0, A 0, B 90, C 0} C_DIS
LIN {X -56.94, Y -18.91, Z 25.0, A 0, B 90, C 0} C_DIS
LIN {X -56.35, Y -20.53, Z 25.0, A 0, B 90, C 0} C_DIS
LIN {X -55.62, Y -22.52, Z 25.0, A 0, B 90, C 0} C_DIS
LIN {X -54.91, Y -24.1, Z 25.0, A 0, B 90, C 0} C_DIS
LIN {X -54.06, Y -26.03, Z 25.0, A 0, B 90, C 0} C_DIS
LIN {X -53.26, Y -27.57, Z 25.0, A 0, B 90, C 0} C_DIS
LIN {X -52.28, Y -29.44, Z 25.0, A 0, B 90, C 0} C_DIS
LIN {X -51.38, Y -30.92, Z 25.0, A 0, B 90, C 0} C_DIS
LIN {X -50.29, Y -32.73, Z 25.0, A 0, B 90, C 0} C_DIS
LIN {X -49.3, Y -34.15, Z 25.0, A 0, B 90, C 0} C_DIS
LIN {X -48.08, Y -35.89, Z 25.0, A 0, B 90, C 0} C_DIS
LIN {X -47.01, Y -37.24, Z 25.0, A 0, B 90, C 0} C_DIS
LIN {X -45.69, Y -38.89, Z 25.0, A 0, B 90, C 0} C_DIS
LIN {X -44.52, Y -40.17, Z 25.0, A 0, B 90, C 0} C_DIS
LIN {X -43.1, Y -41.74, Z 25.0, A 0, B 90, C 0} C_DIS
LIN {X -41.86, Y -42.95, Z 25.0, A 0, B 90, C 0} C_DIS
LIN {X -40.34, Y -44.42, Z 25.0, A 0, B 90, C 0} C_DIS
LIN {X -39.02, Y -45.54, Z 25.0, A 0, B 90, C 0} C_DIS
LIN {X -37.41, Y -46.91, Z 25.0, A 0, B 90, C 0} C_DIS
LIN {X -36.02, Y -47.95, Z 25.0, A 0, B 90, C 0} C_DIS
LIN {X -34.33, Y -49.21, Z 25.0, A 0, B 90, C 0} C_DIS
LIN {X -32.88, Y -50.15, Z 25.0, A 0, B 90, C 0} C_DIS
LIN {X -31.1, Y -51.31, Z 25.0, A 0, B 90, C 0} C_DIS
LIN {X -29.6, Y -52.16, Z 25.0, A 0, B 90, C 0} C_DIS
LIN {X -27.75, Y -53.2, Z 25.0, A 0, B 90, C 0} C_DIS
LIN {X -26.19, Y -53.95, Z 25.0, A 0, B 90, C 0} C_DIS
LIN {X -24.29, Y -54.86, Z 25.0, A 0, B 90, C 0} C_DIS
LIN {X -22.68, Y -55.51, Z 25.0, A 0, B 90, C 0} C_DIS
LIN {X -20.72, Y -56.31, Z 25.0, A 0, B 90, C 0} C_DIS
LIN {X -19.08, Y -56.85, Z 25.0, A 0, B 90, C 0} C_DIS
LIN {X -17.07, Y -57.52, Z 25.0, A 0, B 90, C 0} C_DIS
LIN {X -15.4, Y -57.96, Z 25.0, A 0, B 90, C 0} C_DIS
LIN {X -13.35, Y -58.5, Z 25.0, A 0, B 90, C 0} C_DIS
LIN {X -11.65, Y -58.83, Z 25.0, A 0, B 90, C 0} C_DIS
LIN {X -9.58, Y -59.23, Z 25.0, A 0, B 90, C 0} C_DIS
LIN {X -7.86, Y -59.45, Z 25.0, A 0, B 90, C 0} C_DIS
LIN {X -5.76, Y -59.72, Z 25.0, A 0, B 90, C 0} C_DIS
LIN {X -4.03, Y -59.83, Z 25.0, A 0, B 90, C 0} C_DIS
